%
(Header)
(Generated by gcodetools from Inkscape.)
(Using default header. To add your own header create file "header" in the output dir.)
M3
(Header end.)
G21 (All units in mm)

(Start cutting path id: path51)
(Change tool to Default tool)

G00 Z5.000000
G00 X47.625745 Y12.194320

G01 Z-0.125000 F100.0(Penetrate)
G02 X42.018973 Y19.678321 Z-0.125000 I7.943951 J11.793558 F400.000000
G02 X38.182959 Y41.885680 Z-0.125000 I78.701692 J25.029618
G03 X37.435378 Y50.567598 Z-0.125000 I-84.238077 J-2.880411
G03 X36.749132 Y52.239210 Z-0.125000 I-3.590128 J-0.497185
G02 X32.820961 Y59.712598 Z-0.125000 I21.555923 J16.099308
G02 X31.471595 Y67.830963 Z-0.125000 I24.213739 J8.195926
G02 X32.504730 Y78.634206 Z-0.125000 I55.247667 J0.167581
G02 X37.288267 Y97.480993 Z-0.125000 I174.035604 J-34.141839
G03 X37.119902 Y97.602039 Z-0.125000 I-0.104234 J0.032633
G03 X34.954039 Y95.787816 Z-0.125000 I11.905397 J-16.412891
G02 X32.212733 Y93.528372 Z-0.125000 I-15.887357 J16.482895
G02 X29.586175 Y92.022750 Z-0.125000 I-9.547779 J13.612279
G02 X26.729511 Y91.149844 Z-0.125000 I-4.696145 J10.257761
G02 X23.362859 Y90.994271 Z-0.125000 I-2.341696 J14.169564
G02 X14.319551 Y95.170322 Z-0.125000 I1.005839 J14.057904
G02 X8.768256 Y105.835952 Z-0.125000 I14.642399 J14.398637
G02 X8.228243 Y116.043827 Z-0.125000 I38.786614 J7.170097
G02 X10.245991 Y124.966488 Z-0.125000 I31.495676 J-2.432878
G03 X10.658753 Y126.517688 Z-0.125000 I-6.971511 J2.685578
G03 X10.989585 Y129.806936 Z-0.125000 I-31.320452 J4.811472
G02 X11.391590 Y133.067147 Z-0.125000 I22.002943 J-1.058212
G02 X11.972572 Y134.723862 Z-0.125000 I6.170054 J-1.233507
G02 X13.888064 Y136.573708 Z-0.125000 I3.697493 J-1.912050
G02 X16.051258 Y136.655925 Z-0.125000 I1.177648 J-2.486075
G03 X16.677930 Y136.701590 Z-0.125000 I0.264730 J0.689872
G03 X17.345721 Y137.383208 Z-0.125000 I-0.834762 J1.485760
G02 X20.100092 Y139.146897 Z-0.125000 I2.954243 J-1.581062
G02 X22.940306 Y137.717524 Z-0.125000 I0.188900 J-3.161137
G03 X23.327901 Y137.521496 Z-0.125000 I0.363423 J0.237377
G03 X24.295992 Y137.793134 Z-0.125000 I-0.129535 J2.322561
G02 X26.290624 Y138.068927 Z-0.125000 I1.370444 J-2.560699
G02 X28.472678 Y136.874027 Z-0.125000 I-0.952787 J-4.329741
G02 X29.508684 Y135.215350 Z-0.125000 I-3.071067 J-3.071064
G02 X29.948979 Y132.581097 Z-0.125000 I-7.660130 J-2.634253
G03 X30.345439 Y130.160930 Z-0.125000 I7.585107 J0.000000
G03 X30.897239 Y129.764470 Z-0.125000 I0.551800 J0.185772
G02 X31.754244 Y129.570146 Z-0.125000 I0.000000 J-1.986942
G02 X32.469201 Y129.012956 Z-0.125000 I-0.911838 J-1.907314
G03 X33.154596 Y128.734632 Z-0.125000 I0.602137 J0.499728
G03 X34.445275 Y129.224415 Z-0.125000 I-0.289949 J2.709569
G02 X38.810406 Y131.337819 Z-0.125000 I8.417561 J-11.821371
G02 X46.296321 Y132.670867 Z-0.125000 I9.961164 J-34.252678
G03 X50.138270 Y133.346857 Z-0.125000 I-1.294777 J18.614518
G03 X52.727451 Y134.512431 Z-0.125000 I-2.721498 J9.504042
G03 X54.748435 Y136.209922 Z-0.125000 I-5.405727 J8.487709
G03 X54.851131 Y136.835177 Z-0.125000 I-0.428053 J0.391368
G02 X54.071729 Y140.014092 Z-0.125000 I8.619184 J3.798244
G02 X54.401207 Y143.662962 Z-0.125000 I11.775969 J0.775988
G02 X55.975224 Y146.557241 Z-0.125000 I6.403025 J-1.607059
G02 X59.951663 Y149.617457 Z-0.125000 I11.200999 J-10.440963
G02 X62.115664 Y150.341263 Z-0.125000 I3.208682 J-5.996351
G02 X67.070188 Y150.724066 Z-0.125000 I4.954524 J-31.871161
G02 X72.037698 Y150.345237 Z-0.125000 I0.000000 J-32.758359
G02 X74.645945 Y149.561831 Z-0.125000 I-1.484407 J-9.675755
G02 X78.860837 Y146.836433 Z-0.125000 I-7.380475 J-16.035990
G02 X81.254692 Y143.804702 Z-0.125000 I-6.867991 J-7.883927
G02 X82.258881 Y139.806294 Z-0.125000 I-7.792303 J-4.082318
G02 X81.330422 Y135.867042 Z-0.125000 I-8.477816 J-0.080870
G03 X81.362826 Y134.750158 Z-0.125000 I1.034825 J-0.528888
G03 X83.940675 Y131.417058 Z-0.125000 I14.255586 J8.361978
G03 X87.328867 Y128.400450 Z-0.125000 I28.029753 J28.071369
G03 X89.503669 Y127.007604 Z-0.125000 I7.986299 J10.075574
G02 X97.767474 Y121.020764 Z-0.125000 I-14.663889 J-28.937783
G02 X108.115960 Y108.414167 Z-0.125000 I-58.571068 J-58.630462
G02 X117.872118 Y90.948005 Z-0.125000 I-104.909969 J-70.057919
G02 X121.079200 Y80.150333 Z-0.125000 I-36.347995 J-16.671052
G02 X121.647213 Y65.178567 Z-0.125000 I-67.814922 J-10.069485
G02 X119.434380 Y57.206450 Z-0.125000 I-20.852474 J1.494886
G02 X114.954396 Y49.869869 Z-0.125000 I-49.018487 J24.896365
G02 X112.534980 Y47.673060 Z-0.125000 I-6.436841 J4.658404
G02 X107.857079 Y46.846686 Z-0.125000 I-3.452725 J5.891619
G02 X105.451320 Y48.964910 Z-0.125000 I0.557849 J3.058848
G03 X104.931708 Y49.810470 Z-0.125000 I-1.960174 J-0.622127
G03 X103.628670 Y50.753890 Z-0.125000 I-3.785165 J-3.856436
G02 X101.955692 Y52.788858 Z-0.125000 I1.533867 J2.966189
G02 X101.846040 Y56.892710 Z-0.125000 I7.787841 J2.261477
G03 X102.133493 Y61.060432 Z-0.125000 I-12.742669 J2.972652
G03 X101.121580 Y64.791550 Z-0.125000 I-11.157967 J-1.023364
G03 X100.639772 Y64.814620 Z-0.125000 I-0.246998 J-0.115745
G03 X99.837363 Y62.619254 Z-0.125000 I5.513671 J-3.259577
G02 X97.610061 Y54.880595 Z-0.125000 I-35.114651 J5.916670
G02 X94.747233 Y50.360230 Z-0.125000 I-14.519422 J6.028685
G03 X94.301494 Y49.376152 Z-0.125000 I1.311812 J-1.187174
G03 X94.298033 Y46.472940 Z-0.125000 I12.692815 J-1.466740
G02 X94.435181 Y43.455951 Z-0.125000 I-22.335998 J-2.526974
G02 X94.091343 Y36.990430 Z-0.125000 I-103.325055 J2.252948
G02 X89.845478 Y18.385823 Z-0.125000 I-68.179209 J5.772781
G02 X84.663558 Y12.264650 Z-0.125000 I-11.292499 J4.305760
G02 X82.366402 Y11.469520 Z-0.125000 I-3.141908 J5.361232
G02 X76.614711 Y11.160220 Z-0.125000 I-4.742942 J34.565524
G01 X70.740352 Y11.330120 Z-0.125000
G01 X68.779009 Y13.541540 Z-0.125000
G02 X67.007586 Y15.825048 Z-0.125000 I16.451052 J14.590685
G02 X66.817666 Y16.445580 Z-0.125000 I0.918783 J0.620532
G03 X66.314832 Y16.753034 Z-0.125000 I-0.345412 J0.000000
G03 X65.327090 Y15.682380 Z-0.125000 I0.961619 J-1.878103
G02 X64.570084 Y14.331798 Z-0.125000 I-6.066334 J2.512759
G02 X63.213954 Y12.778340 Z-0.125000 I-9.418061 J6.853068
G02 X61.481220 Y11.863350 Z-0.125000 I-2.465574 J2.570951
G02 X55.548632 Y11.166880 Z-0.125000 I-6.810195 J32.394447
G02 X49.530688 Y11.475400 Z-0.125000 I-1.028556 J38.783973
G02 X47.625748 Y12.194320 Z-0.125000 I0.569616 J4.392568
G01 X47.625745 Y12.194320 Z-0.125000
G00 Z5.000000

(End cutting path id: path51)


(Start cutting path id: path51)
(Change tool to Default tool)

G00 Z5.000000
G00 X47.949702 Y18.720470

G01 Z-0.125000 F100.0(Penetrate)
G02 X49.271631 Y19.359103 Z-0.125000 I1.678278 J-1.786457 F400.000000
G02 X55.558010 Y19.838450 Z-0.125000 I6.571626 J-44.722416
G02 X61.994464 Y19.707954 Z-0.125000 I0.763524 J-121.138588
G02 X63.336426 Y19.473740 Z-0.125000 I-0.253929 J-5.416511
G03 X64.311919 Y19.640988 Z-0.125000 I0.322524 J1.047303
G03 X64.977840 Y20.691610 Z-0.125000 I-1.031397 J1.390089
G03 X65.171930 Y22.327904 Z-0.125000 I-10.194177 J2.038847
G03 X65.302512 Y29.070030 Z-0.125000 I-173.987327 J6.742126
G01 X65.302512 Y35.825080 Z-0.125000
G01 X63.868148 Y35.825080 Z-0.125000
G02 X56.624282 Y37.122811 Z-0.125000 I-0.000000 J20.866304
G02 X47.246957 Y41.977890 Z-0.125000 I14.914475 J40.289950
G01 X45.100493 Y43.449360 Z-0.125000
G01 X45.100493 Y41.942970 Z-0.125000
G02 X44.457105 Y36.404605 Z-0.125000 I-24.159176 J-0.000000
G02 X42.488219 Y30.851310 Z-0.125000 I-26.260242 J6.184730
G03 X41.929661 Y28.610218 Z-0.125000 I5.086515 J-2.457888
G03 X42.285329 Y25.568340 Z-0.125000 I9.925638 J-0.381189
G03 X44.984970 Y18.296332 Z-0.125000 I44.383420 J12.339673
G03 X46.013974 Y17.643260 Z-0.125000 I1.029004 J0.484133
G03 X46.729524 Y17.828948 Z-0.125000 I0.000000 J1.471529
G03 X47.949702 Y18.720470 Z-0.125000 I-2.989981 J5.372985
G01 X47.949702 Y18.720470 Z-0.125000
G00 Z5.000000

(End cutting path id: path51)


(Start cutting path id: path51)
(Change tool to Default tool)

G00 Z5.000000
G00 X52.044937 Y19.001560

G01 Z-0.125000 F100.0(Penetrate)
G03 X51.161098 Y19.115135 Z-0.125000 I-0.883838 J-3.382222 F400.000000
G03 X50.277260 Y19.001560 Z-0.125000 I0.000000 J-3.495797
G03 X50.277260 Y18.884162 Z-0.125000 I0.015340 J-0.058699
G03 X51.161098 Y18.770580 Z-0.125000 I0.883838 J3.381997
G03 X52.044937 Y18.884162 Z-0.125000 I-0.000000 J3.495577
G03 X52.044937 Y19.001560 Z-0.125000 I-0.015340 J0.058699
G01 X52.044937 Y19.001560 Z-0.125000
G00 Z5.000000

(End cutting path id: path51)


(Start cutting path id: path51)
(Change tool to Default tool)

G00 Z5.000000
G00 X59.629739 Y19.519300

G01 Z-0.125000 F100.0(Penetrate)
G03 X58.248473 Y19.624749 Z-0.125000 I-1.397008 J-9.200005 F400.000000
G03 X56.599436 Y19.524300 Z-0.125000 I-0.022361 J-13.218958
G03 X56.598005 Y19.420232 Z-0.125000 I0.006455 J-0.052133
G03 X57.979280 Y19.314780 Z-0.125000 I1.397077 J9.200641
G03 X59.628308 Y19.415043 Z-0.125000 I0.023795 J13.219531
G03 X59.629739 Y19.519150 Z-0.125000 I-0.006461 J0.052152
G01 X59.629739 Y19.519300 Z-0.125000
G00 Z5.000000

(End cutting path id: path51)


(Start cutting path id: path51)
(Change tool to Default tool)

G00 Z5.000000
G00 X63.913623 Y18.482800

G01 Z-0.125000 F100.0(Penetrate)
G03 X63.282310 Y18.605363 Z-0.125000 I-0.631313 J-1.564638 F400.000000
G03 X62.650997 Y18.482800 Z-0.125000 I0.000000 J-1.687201
G03 X62.650996 Y18.350624 Z-0.125000 I0.026668 J-0.066088
G03 X63.282310 Y18.228050 Z-0.125000 I0.631314 J1.564494
G03 X63.913624 Y18.350624 Z-0.125000 I-0.000000 J1.687065
G03 X63.913623 Y18.482800 Z-0.125000 I-0.026668 J0.066088
G01 X63.913623 Y18.482800 Z-0.125000
G00 Z5.000000

(End cutting path id: path51)


(Start cutting path id: path51)
(Change tool to Default tool)

G00 Z5.000000
G00 X69.711183 Y18.453500

G01 Z-0.125000 F100.0(Penetrate)
G03 X69.373788 Y18.601463 Z-0.125000 I-0.358248 J-0.358244 F400.000000
G03 X68.743168 Y18.493400 Z-0.125000 I-0.062904 J-1.526988
G03 X68.710918 Y18.336225 Z-0.125000 I0.035703 J-0.089222
G03 X69.048304 Y18.188270 Z-0.125000 I0.358232 J0.358234
G03 X69.678915 Y18.296342 Z-0.125000 I0.062824 J1.527295
G03 X69.711183 Y18.453530 Z-0.125000 I-0.035700 J0.089235
G01 X69.711183 Y18.453500 Z-0.125000
G00 Z5.000000

(End cutting path id: path51)


(Start cutting path id: path51)
(Change tool to Default tool)

G00 Z5.000000
G00 X75.791354 Y19.519300

G01 Z-0.125000 F100.0(Penetrate)
G03 X74.410088 Y19.624749 Z-0.125000 I-1.397008 J-9.200005 F400.000000
G03 X72.761051 Y19.524300 Z-0.125000 I-0.022361 J-13.218958
G03 X72.759620 Y19.420232 Z-0.125000 I0.006455 J-0.052133
G03 X74.140895 Y19.314780 Z-0.125000 I1.397077 J9.200637
G03 X75.789923 Y19.415043 Z-0.125000 I0.023795 J13.219531
G03 X75.791354 Y19.519150 Z-0.125000 I-0.006461 J0.052152
G01 X75.791354 Y19.519300 Z-0.125000
G00 Z5.000000

(End cutting path id: path51)


(Start cutting path id: path51)
(Change tool to Default tool)

G00 Z5.000000
G00 X82.105051 Y18.984660

G01 Z-0.125000 F100.0(Penetrate)
G03 X81.475251 Y19.111277 Z-0.125000 I-0.651239 J-1.609668 F400.000000
G03 X80.589899 Y19.003360 Z-0.125000 I-0.041324 J-3.346668
G03 X80.581796 Y18.878446 Z-0.125000 I0.016625 J-0.063798
G03 X81.211601 Y18.751820 Z-0.125000 I0.651265 J1.609668
G03 X82.096953 Y18.859738 Z-0.125000 I0.041361 J3.346321
G03 X82.105051 Y18.984650 Z-0.125000 I-0.016627 J0.063796
G01 X82.105051 Y18.984660 Z-0.125000
G00 Z5.000000

(End cutting path id: path51)


(Start cutting path id: path51)
(Change tool to Default tool)

G00 Z5.000000
G00 X84.999480 Y17.328900

G01 Z-0.125000 F100.0(Penetrate)
G03 X84.933749 Y17.487589 Z-0.125000 I-0.224421 J-0.000000 F400.000000
G03 X84.115641 Y18.212740 Z-0.125000 I-6.428255 J-6.428228
G03 X83.935788 Y18.201904 Z-0.125000 I-0.083814 J-0.106872
G03 X83.924955 Y18.022050 Z-0.125000 I0.096040 J-0.096038
G03 X84.802712 Y17.221674 Z-0.125000 I2.821414 J2.212695
G03 X84.999480 Y17.328900 Z-0.125000 I0.069169 J0.107226
G01 X84.999480 Y17.328900 Z-0.125000
G00 Z5.000000

(End cutting path id: path51)


(Start cutting path id: path51)
(Change tool to Default tool)

G00 Z5.000000
G00 X88.374535 Y20.168510

G01 Z-0.125000 F100.0(Penetrate)
G03 X89.332447 Y22.493536 Z-0.125000 I-18.622463 J9.032311 F400.000000
G03 X90.327964 Y25.871090 Z-0.125000 I-38.394044 J13.151935
G03 X90.747964 Y29.192618 Z-0.125000 I-13.864823 J3.440495
G03 X90.364024 Y30.201540 Z-0.125000 I-1.485096 J0.012368
G02 X88.464821 Y33.701149 Z-0.125000 I6.252283 J5.658195
G02 X87.524731 Y40.923650 Z-0.125000 I27.274383 J7.222501
G01 X87.524731 Y42.830330 Z-0.125000
G01 X84.115640 Y40.830900 Z-0.125000
G02 X76.925498 Y37.546505 Z-0.125000 I-19.647686 J33.499918
G02 X69.843571 Y35.997450 Z-0.125000 I-10.477472 J30.937608
G01 X66.960071 Y35.696070 Z-0.125000
G01 X67.168919 Y28.563600 Z-0.125000
G03 X68.253514 Y20.035948 Z-0.125000 I44.255503 J1.295868
G03 X69.239934 Y19.462220 Z-0.125000 I0.760741 J0.173106
G02 X70.630409 Y19.704539 Z-0.125000 I1.692371 J-5.600579
G02 X76.811626 Y19.853430 Z-0.125000 I5.793101 J-112.120037
G02 X82.870348 Y19.407415 Z-0.125000 I-0.149574 J-43.406058
G02 X84.387383 Y18.758680 Z-0.125000 I-0.457973 J-3.169071
G03 X86.424395 Y18.424923 Z-0.125000 I1.322330 J1.687437
G03 X88.374535 Y20.168510 Z-0.125000 I-1.147831 J3.246182
G01 X88.374535 Y20.168510 Z-0.125000
G00 Z5.000000

(End cutting path id: path51)


(Start cutting path id: path51)
(Change tool to Default tool)

G00 Z5.000000
G00 X82.006682 Y13.099650

G01 Z-0.125000 F100.0(Penetrate)
G03 X85.921929 Y15.175855 Z-0.125000 I-2.761789 J9.937833 F400.000000
G03 X85.572116 Y16.128110 Z-0.125000 I-0.349813 J0.411875
G02 X85.002764 Y16.263527 Z-0.125000 I0.000000 J1.264609
G02 X83.590141 Y17.127450 Z-0.125000 I4.557766 J9.039394
G03 X82.096169 Y17.755049 Z-0.125000 I-2.069004 J-2.833203
G03 X76.918672 Y18.235950 Z-0.125000 I-5.920972 J-35.635115
G03 X71.640870 Y18.150539 Z-0.125000 I-1.477378 J-71.816951
G03 X69.940653 Y17.866180 Z-0.125000 I0.405186 J-7.647731
G01 X68.265658 Y17.387240 Z-0.125000
G01 X69.453087 Y15.621310 Z-0.125000
G03 X70.837402 Y14.111566 Z-0.125000 I5.683024 J3.821356
G03 X72.390708 Y13.252570 Z-0.125000 I3.228035 J4.003290
G03 X76.952420 Y12.451713 Z-0.125000 I4.795556 J13.923395
G03 X82.006682 Y13.099860 Z-0.125000 I0.283062 J17.823358
G01 X82.006682 Y13.099650 Z-0.125000
G00 Z5.000000

(End cutting path id: path51)


(Start cutting path id: path51)
(Change tool to Default tool)

G00 Z5.000000
G00 X79.331010 Y11.949560

G01 Z-0.125000 F100.0(Penetrate)
G03 X77.449664 Y12.048791 Z-0.125000 I-1.896901 J-18.079690 F400.000000
G03 X75.290607 Y11.953560 Z-0.125000 I-0.020583 J-24.055721
G01 X75.289873 Y11.855450 Z-0.125000
G03 X77.171197 Y11.756250 Z-0.125000 I1.896289 J18.073791
G03 X79.330281 Y11.852108 Z-0.125000 I0.021491 J23.879204
G01 X79.331010 Y11.950230 Z-0.125000
G01 X79.331010 Y11.949560 Z-0.125000
G00 Z5.000000

(End cutting path id: path51)


(Start cutting path id: path51)
(Change tool to Default tool)

G00 Z5.000000
G00 X60.908360 Y13.364540

G01 Z-0.125000 F100.0(Penetrate)
G03 X61.690820 Y13.886917 Z-0.125000 I-0.856134 J2.129594 F400.000000
G03 X63.062002 Y15.560230 Z-0.125000 I-8.663994 J8.498094
G01 X64.306769 Y17.390520 Z-0.125000
G01 X62.658173 Y17.867720 Z-0.125000
G03 X60.984012 Y18.150673 Z-0.125000 I-2.066921 J-7.135167
G03 X55.706553 Y18.235950 Z-0.125000 I-3.798765 J-71.747783
G03 X50.529054 Y17.755054 Z-0.125000 I0.743167 J-36.113059
G03 X49.035085 Y17.127450 Z-0.125000 I0.575053 J-3.460822
G02 X47.622463 Y16.263528 Z-0.125000 I-5.970350 J8.175406
G02 X47.053108 Y16.128110 Z-0.125000 I-0.569355 J1.129200
G03 X46.697121 Y15.209071 Z-0.125000 I0.000000 J-0.528465
G03 X50.375694 Y13.099760 Z-0.125000 I6.589767 J7.230036
G03 X55.898509 Y12.329888 Z-0.125000 I5.092398 J16.336848
G03 X60.908360 Y13.364750 Z-0.125000 I-0.362256 J14.397696
G01 X60.908360 Y13.364540 Z-0.125000
G00 Z5.000000

(End cutting path id: path51)


(Start cutting path id: path51)
(Change tool to Default tool)

G00 Z5.000000
G00 X56.590391 Y11.950560

G01 Z-0.125000 F100.0(Penetrate)
G03 X54.696452 Y12.049345 Z-0.125000 I-1.893940 J-18.106225 F400.000000
G03 X52.802512 Y11.950560 Z-0.125000 I0.000000 J-18.205010
G01 X52.802513 Y11.851233 Z-0.125000
G03 X54.696452 Y11.752450 Z-0.125000 I1.893939 J18.106669
G03 X56.590388 Y11.851220 Z-0.125000 I-0.000000 J18.207623
G01 X56.590391 Y11.950560 Z-0.125000
G01 X56.590391 Y11.950560 Z-0.125000
G00 Z5.000000

(End cutting path id: path51)


(Start cutting path id: path51)
(Change tool to Default tool)

G00 Z5.000000
G00 X66.155708 Y35.193790

G01 Z-0.125000 F100.0(Penetrate)
G03 X66.038315 Y35.193790 Z-0.125000 I-0.058696 J-0.015339 F400.000000
G03 X65.924734 Y34.309950 Z-0.125000 I3.382034 J-0.883840
G03 X66.038314 Y33.426110 Z-0.125000 I3.495661 J-0.000000
G03 X66.155708 Y33.426110 Z-0.125000 I0.058697 J0.015339
G03 X66.269284 Y34.309950 Z-0.125000 I-3.382194 J0.883840
G03 X66.155708 Y35.193790 Z-0.125000 I-3.495770 J-0.000000
G01 X66.155708 Y35.193790 Z-0.125000
G00 Z5.000000

(End cutting path id: path51)


(Start cutting path id: path51)
(Change tool to Default tool)

G00 Z5.000000
G00 X76.876309 Y39.791970

G01 Z-0.125000 F100.0(Penetrate)
G03 X90.293537 Y48.580761 Z-0.125000 I-12.566391 J33.820185 F400.000000
G03 X97.403963 Y61.100524 Z-0.125000 I-20.937446 J20.170149
G03 X98.620908 Y69.183458 Z-0.125000 I-33.821432 J9.225143
G03 X97.969283 Y78.442533 Z-0.125000 I-45.180219 J1.472821
G03 X96.698054 Y82.674147 Z-0.125000 I-18.372992 J-3.212721
G03 X95.131533 Y84.961634 Z-0.125000 I-6.733334 J-2.930996
G02 X91.838659 Y89.482783 Z-0.125000 I12.282940 J12.405713
G02 X90.225611 Y94.653205 Z-0.125000 I14.605546 J7.393409
G01 X89.911318 Y96.946210 Z-0.125000
G01 X66.691325 Y96.814952 Z-0.125000
G01 X43.471333 Y96.683690 Z-0.125000
G01 X42.569281 Y93.767982 Z-0.125000
G02 X40.620772 Y89.615559 Z-0.125000 I-15.846507 J4.902539
G02 X37.414978 Y85.856907 Z-0.125000 I-16.120991 J10.503309
G03 X36.383597 Y84.339522 Z-0.125000 I2.612554 J-2.884989
G03 X35.033660 Y79.511972 Z-0.125000 I27.200833 J-10.208740
G03 X34.219650 Y65.803937 Z-0.125000 I53.279674 J-10.042037
G03 X36.550597 Y57.128800 Z-0.125000 I23.146961 J1.568699
G03 X43.673133 Y47.462472 Z-0.125000 I30.471754 J14.995555
G03 X54.066498 Y40.545220 Z-0.125000 I25.244353 J26.663560
G03 X60.442134 Y38.559750 Z-0.125000 I11.820548 J26.728235
G03 X67.322713 Y38.031470 Z-0.125000 I5.815016 J30.665453
G03 X72.549419 Y38.599158 Z-0.125000 I-1.213082 J35.513840
G03 X76.876309 Y39.791970 Z-0.125000 I-4.693515 J25.469825
G01 X76.876309 Y39.791970 Z-0.125000
G00 Z5.000000

(End cutting path id: path51)


(Start cutting path id: path51)
(Change tool to Default tool)

G00 Z5.000000
G00 X88.379777 Y41.749830

G01 Z-0.125000 F100.0(Penetrate)
G03 X88.254864 Y41.757932 Z-0.125000 I-0.063798 J-0.016625 F400.000000
G03 X88.128242 Y41.128130 Z-0.125000 I1.609643 J-0.651248
G03 X88.236150 Y40.242782 Z-0.125000 I3.346560 J-0.041364
G03 X88.361065 Y40.234680 Z-0.125000 I0.063798 J0.016626
G03 X88.487688 Y40.864478 Z-0.125000 I-1.609611 J0.651245
G03 X88.379805 Y41.749830 Z-0.125000 I-3.347480 J0.041349
G01 X88.379777 Y41.749830 Z-0.125000
G00 Z5.000000

(End cutting path id: path51)


(Start cutting path id: path51)
(Change tool to Default tool)

G00 Z5.000000
G00 X88.879838 Y37.940000

G01 Z-0.125000 F100.0(Penetrate)
G03 X88.722663 Y37.972249 Z-0.125000 I-0.089222 J-0.035703 F400.000000
G03 X88.574707 Y37.634860 Z-0.125000 I0.358243 J-0.358237
G03 X88.682788 Y37.004236 Z-0.125000 I1.526978 J-0.062869
G03 X88.839969 Y36.971980 Z-0.125000 I0.089227 J0.035703
G03 X88.987923 Y37.309372 Z-0.125000 I-0.358249 J0.358236
G03 X88.879819 Y37.940000 Z-0.125000 I-1.526721 J0.062865
G01 X88.879838 Y37.940000 Z-0.125000
G00 Z5.000000

(End cutting path id: path51)


(Start cutting path id: path51)
(Change tool to Default tool)

G00 Z5.000000
G00 X92.263701 Y39.191980

G01 Z-0.125000 F100.0(Penetrate)
G03 X92.445281 Y44.311371 Z-0.125000 I-77.477527 J5.310969 F400.000000
G03 X92.279661 Y45.665260 Z-0.125000 I-5.505584 J0.013582
G01 X91.943661 Y47.003980 Z-0.125000
G01 X90.491767 Y45.612970 Z-0.125000
G03 X89.390001 Y42.982522 Z-0.125000 I2.473823 J-2.582126
G03 X90.651070 Y33.825100 Z-0.125000 I37.566061 J0.507684
G03 X91.250622 Y32.733353 Z-0.125000 I2.511076 J0.668500
G03 X91.581232 Y32.815000 Z-0.125000 I0.142891 J0.131583
G03 X91.814535 Y34.073522 Z-0.125000 I-8.073210 J2.147488
G03 X92.263691 Y39.191980 Z-0.125000 I-133.843404 J14.323981
G01 X92.263701 Y39.191980 Z-0.125000
G00 Z5.000000

(End cutting path id: path51)


(Start cutting path id: path51)
(Change tool to Default tool)

G00 Z5.000000
G00 X93.437493 Y41.501030

G01 Z-0.125000 F100.0(Penetrate)
G03 X93.323414 Y41.504800 Z-0.125000 I-0.057467 J-0.011051 F400.000000
G03 X93.207653 Y40.623080 Z-0.125000 I3.436396 J-0.899623
G03 X93.313143 Y39.484593 Z-0.125000 I5.855010 J-0.031617
G03 X93.427293 Y39.480830 Z-0.125000 I0.057502 J0.011070
G03 X93.543056 Y40.362546 Z-0.125000 I-3.436553 J0.899651
G03 X93.437493 Y41.501030 Z-0.125000 I-5.872241 J0.029649
G01 X93.437493 Y41.501030 Z-0.125000
G00 Z5.000000

(End cutting path id: path51)


(Start cutting path id: path51)
(Change tool to Default tool)

G00 Z5.000000
G00 X93.428433 Y46.304900

G01 Z-0.125000 F100.0(Penetrate)
G03 X93.311043 Y46.304901 Z-0.125000 I-0.058695 J-0.015338 F400.000000
G03 X93.197463 Y45.421060 Z-0.125000 I3.382069 J-0.883841
G03 X93.311042 Y44.537220 Z-0.125000 I3.495695 J-0.000000
G03 X93.428433 Y44.537220 Z-0.125000 I0.058696 J0.015339
G03 X93.542008 Y45.421060 Z-0.125000 I-3.382220 J0.883840
G03 X93.428433 Y46.304900 Z-0.125000 I-3.495796 J0.000000
G01 X93.428433 Y46.304900 Z-0.125000
G00 Z5.000000

(End cutting path id: path51)


(Start cutting path id: path51)
(Change tool to Default tool)

G00 Z5.000000
G00 X106.257530 Y54.038760

G01 Z-0.125000 F100.0(Penetrate)
G03 X107.393941 Y57.158354 Z-0.125000 I-5.219743 J3.668241 F400.000000
G03 X106.692780 Y59.081300 Z-0.125000 I-2.415599 J0.208508
G03 X105.588674 Y59.898722 Z-0.125000 I-3.291484 J-3.291484
G03 X105.076550 Y59.941700 Z-0.125000 I-0.306123 J-0.575041
G03 X104.530564 Y59.405793 Z-0.125000 I0.275633 J-0.826898
G03 X103.807229 Y56.753477 Z-0.125000 I17.492783 J-6.195392
G03 X103.474690 Y54.013353 Z-0.125000 I19.007107 J-3.696925
G03 X103.758060 Y53.162940 Z-0.125000 I1.234472 J-0.061074
G03 X104.739826 Y52.890678 Z-0.125000 I0.686676 J0.569891
G03 X106.257530 Y54.038760 Z-0.125000 I-1.029549 J2.938214
G01 X106.257530 Y54.038760 Z-0.125000
G00 Z5.000000

(End cutting path id: path51)


(Start cutting path id: path51)
(Change tool to Default tool)

G00 Z5.000000
G00 X110.597020 Y59.657170

G01 Z-0.125000 F100.0(Penetrate)
G03 X110.439840 Y59.689420 Z-0.125000 I-0.089224 J-0.035706 F400.000000
G03 X110.291880 Y59.352030 Z-0.125000 I0.358247 J-0.358245
G03 X110.399953 Y58.721430 Z-0.125000 I1.527236 J-0.062822
G03 X110.557150 Y58.689160 Z-0.125000 I0.089240 J0.035703
G03 X110.705096 Y59.026533 Z-0.125000 I-0.358208 J0.358208
G03 X110.596950 Y59.657170 Z-0.125000 I-1.526415 J0.062831
G01 X110.597020 Y59.657170 Z-0.125000
G00 Z5.000000

(End cutting path id: path51)


(Start cutting path id: path51)
(Change tool to Default tool)

G00 Z5.000000
G00 X109.283790 Y60.922084

G01 Z-0.125000 F100.0(Penetrate)
G03 X106.325542 Y64.603759 Z-0.125000 I-5.670389 J-1.526869 F400.000000
G03 X104.288610 Y63.523129 Z-0.125000 I-0.646468 J-1.241513
G03 X104.588570 Y62.505585 Z-0.125000 I1.347122 J-0.155869
G03 X105.671170 Y61.842974 Z-0.125000 I1.499069 J1.233534
G02 X107.058543 Y61.261341 Z-0.125000 I-0.897440 J-4.086136
G02 X108.351740 Y60.095344 Z-0.125000 I-3.061064 J-4.695137
G03 X109.507604 Y58.825763 Z-0.125000 I11.617525 J9.415987
G03 X109.653890 Y58.820470 Z-0.125000 I0.076049 J0.077677
G03 X109.713940 Y58.986439 Z-0.125000 I-0.114431 J0.135250
G03 X109.283790 Y60.922084 Z-0.125000 I-21.999214 J-3.873169
G01 X109.283790 Y60.922084 Z-0.125000
G00 Z5.000000

(End cutting path id: path51)


(Start cutting path id: path51)
(Change tool to Default tool)

G00 Z5.000000
G00 X118.026480 Y58.931160

G01 Z-0.125000 F100.0(Penetrate)
G03 X119.458298 Y65.605219 Z-0.125000 I-30.982556 J10.137452 F400.000000
G03 X119.658880 Y74.208942 Z-0.125000 I-51.526317 J5.505455
G03 X118.011446 Y83.823557 Z-0.125000 I-44.400553 J-2.659447
G03 X115.416430 Y88.986250 Z-0.125000 I-15.000900 J-4.306632
G02 X110.967811 Y96.074365 Z-0.125000 I36.411881 J27.792773
G02 X108.700920 Y102.239245 Z-0.125000 I25.173297 J12.755705
G03 X104.454515 Y111.127340 Z-0.125000 I-22.975283 J-5.518309
G03 X93.447183 Y122.069709 Z-0.125000 I-46.498467 J-35.766997
G03 X88.595047 Y125.391223 Z-0.125000 I-35.960475 J-47.326995
G03 X88.398666 Y125.170512 Z-0.125000 I-0.078527 J-0.127852
G02 X90.502097 Y120.987928 Z-0.125000 I-9.193241 J-7.243503
G02 X94.132373 Y104.009604 Z-0.125000 I-155.361797 J-42.096467
G03 X95.428819 Y97.242518 Z-0.125000 I104.407963 J16.494867
G03 X97.436603 Y89.363139 Z-0.125000 I143.607448 J32.397834
G02 X100.128526 Y78.011160 Z-0.125000 I-126.710434 J-36.042317
G02 X100.652230 Y72.510028 Z-0.125000 I-29.031313 J-5.539257
G03 X100.968281 Y69.630413 Z-0.125000 I13.453619 J0.019442
G03 X101.726490 Y67.643907 Z-0.125000 I7.067540 J1.559589
G03 X102.997683 Y66.467911 Z-0.125000 I2.457112 J1.380971
G03 X104.153860 Y66.518094 Z-0.125000 I0.529614 J1.141905
G02 X108.270735 Y66.050983 Z-0.125000 I1.740788 J-3.033154
G02 X111.167490 Y60.023664 Z-0.125000 I-6.189727 J-6.684565
G03 X111.805531 Y57.632623 Z-0.125000 I6.583964 J0.476257
G03 X112.470650 Y57.321300 Z-0.125000 I0.523607 J0.252499
G02 X113.545679 Y57.401853 Z-0.125000 I0.770590 J-3.070252
G02 X114.809340 Y57.095280 Z-0.125000 I-0.442801 J-4.582799
G03 X116.632439 Y57.222096 Z-0.125000 I0.779987 J1.954740
G03 X118.026480 Y58.931160 Z-0.125000 I-1.519242 J2.662281
G01 X118.026480 Y58.931160 Z-0.125000
G00 Z5.000000

(End cutting path id: path51)


(Start cutting path id: path51)
(Change tool to Default tool)

G00 Z5.000000
G00 X120.698020 Y66.727881

G01 Z-0.125000 F100.0(Penetrate)
G03 X120.540847 Y66.760130 Z-0.125000 I-0.089221 J-0.035702 F400.000000
G03 X120.392890 Y66.422745 Z-0.125000 I0.358247 J-0.358241
G03 X120.500963 Y65.792138 Z-0.125000 I1.527261 J-0.062823
G03 X120.658160 Y65.759866 Z-0.125000 I0.089241 J0.035703
G03 X120.806105 Y66.097249 Z-0.125000 I-0.358238 J0.358219
G03 X120.697960 Y66.727881 Z-0.125000 I-1.526402 J0.062831
G01 X120.698020 Y66.727881 Z-0.125000
G00 Z5.000000

(End cutting path id: path51)


(Start cutting path id: path51)
(Change tool to Default tool)

G00 Z5.000000
G00 X120.698020 Y76.323841

G01 Z-0.125000 F100.0(Penetrate)
G03 X120.540847 Y76.356090 Z-0.125000 I-0.089221 J-0.035702 F400.000000
G03 X120.392890 Y76.018705 Z-0.125000 I0.358247 J-0.358241
G03 X120.500963 Y75.388098 Z-0.125000 I1.527261 J-0.062823
G03 X120.658160 Y75.355826 Z-0.125000 I0.089241 J0.035703
G03 X120.806105 Y75.693208 Z-0.125000 I-0.358235 J0.358218
G03 X120.697960 Y76.323841 Z-0.125000 I-1.526409 J0.062831
G01 X120.698020 Y76.323841 Z-0.125000
G00 Z5.000000

(End cutting path id: path51)


(Start cutting path id: path51)
(Change tool to Default tool)

G00 Z5.000000
G00 X116.958770 Y88.875407

G01 Z-0.125000 F100.0(Penetrate)
G03 X116.616609 Y89.637191 Z-0.125000 I-2.439213 J-0.637856 F400.000000
G03 X116.438610 Y89.654766 Z-0.125000 I-0.096207 J-0.064212
G03 X116.149244 Y88.474939 Z-0.125000 I0.828581 J-0.828618
G03 X117.007060 Y87.845276 Z-0.125000 I0.857816 J0.269488
G03 X117.100855 Y87.943567 Z-0.125000 I0.000000 J0.093897
G03 X116.958760 Y88.875407 Z-0.125000 I-4.512559 J-0.211358
G01 X116.958770 Y88.875407 Z-0.125000
G00 Z5.000000

(End cutting path id: path51)


(Start cutting path id: path51)
(Change tool to Default tool)

G00 Z5.000000
G00 X116.008070 Y90.286351

G01 Z-0.125000 F100.0(Penetrate)
G03 X115.973408 Y90.542881 Z-0.125000 I-0.173419 J0.107174 F400.000000
G03 X115.555040 Y90.707230 Z-0.125000 I-0.418368 J-0.450325
G03 X115.136672 Y90.542881 Z-0.125000 I-0.000000 J-0.614674
G03 X115.102010 Y90.286351 Z-0.125000 I0.138756 J-0.149356
G03 X115.396791 Y89.927644 Z-0.125000 I1.474971 J0.911634
G03 X115.555040 Y89.865478 Z-0.125000 I0.158249 J0.170337
G03 X115.713289 Y89.927644 Z-0.125000 I-0.000000 J0.232503
G03 X116.008070 Y90.286351 Z-0.125000 I-1.180190 J1.270341
G01 X116.008070 Y90.286351 Z-0.125000
G00 Z5.000000

(End cutting path id: path51)


(Start cutting path id: path51)
(Change tool to Default tool)

G00 Z5.000000
G00 X109.977910 Y101.951791

G01 Z-0.125000 F100.0(Penetrate)
G03 X110.035995 Y102.367064 Z-0.125000 I-0.442715 J0.273622 F400.000000
G03 X109.755200 Y102.739175 Z-0.125000 I-0.618970 J-0.175075
G03 X109.435584 Y102.709047 Z-0.125000 I-0.139891 J-0.226352
G03 X109.241910 Y102.269023 Z-0.125000 I0.403025 J-0.440024
G03 X109.541133 Y101.814218 Z-0.125000 I0.495253 J0.000000
G03 X109.977910 Y101.951791 Z-0.125000 I0.138698 J0.321792
G01 X109.977910 Y101.951791 Z-0.125000
G00 Z5.000000

(End cutting path id: path51)


(Start cutting path id: path51)
(Change tool to Default tool)

G00 Z5.000000
G00 X90.889520 Y102.618003

G01 Z-0.125000 F100.0(Penetrate)
G03 X90.757348 Y102.618004 Z-0.125000 I-0.066086 J-0.026666 F400.000000
G03 X90.634777 Y101.986690 Z-0.125000 I1.564535 J-0.631314
G03 X90.757348 Y101.355376 Z-0.125000 I1.687103 J0.000000
G03 X90.889520 Y101.355377 Z-0.125000 I0.066086 J0.026667
G03 X91.012088 Y101.986690 Z-0.125000 I-1.564571 J0.631313
G03 X90.889520 Y102.618003 Z-0.125000 I-1.687139 J0.000000
G01 X90.889520 Y102.618003 Z-0.125000
G00 Z5.000000

(End cutting path id: path51)


(Start cutting path id: path51)
(Change tool to Default tool)

G00 Z5.000000
G00 X89.806101 Y101.102847

G01 Z-0.125000 F100.0(Penetrate)
G02 X90.299288 Y103.717543 Z-0.125000 I24.897332 J-3.342307 F400.000000
G02 X90.876717 Y105.488858 Z-0.125000 I11.964441 J-2.920496
G03 X91.218930 Y107.261776 Z-0.125000 I-4.198480 J1.729887
G03 X90.821337 Y111.332831 Z-0.125000 I-23.302197 J-0.220829
G03 X87.011415 Y123.399806 Z-0.125000 I-51.695019 J-9.686794
G03 X82.216014 Y130.275133 Z-0.125000 I-21.012536 J-9.545806
G01 X79.523085 Y132.934613 Z-0.125000
G01 X77.239661 Y132.359639 Z-0.125000
G02 X69.360691 Y131.662095 Z-0.125000 I-6.123281 J24.317879
G02 X58.904487 Y133.646484 Z-0.125000 I3.178568 J45.288887
G01 X56.294335 Y134.468310 Z-0.125000
G01 X53.777408 Y132.853202 Z-0.125000
G03 X47.111978 Y125.701083 Z-0.125000 I10.667070 J-16.623184
G03 X41.887520 Y111.094142 Z-0.125000 I43.640570 J-23.846688
G03 X41.643681 Y107.559478 Z-0.125000 I14.785300 J-2.795706
G03 X42.158750 Y105.577795 Z-0.125000 I5.019202 J0.246786
G02 X42.916116 Y103.598409 Z-0.125000 I-10.118160 J-5.006065
G02 X43.417839 Y101.053609 Z-0.125000 I-16.289950 J-4.533523
G01 X43.726039 Y98.451336 Z-0.125000
G01 X66.588092 Y98.451336 Z-0.125000
G01 X89.450146 Y98.451336 Z-0.125000
G01 X89.806101 Y101.102847 Z-0.125000
G00 Z5.000000

(End cutting path id: path51)


(Start cutting path id: path51)
(Change tool to Default tool)

G00 Z5.000000
G00 X90.889520 Y96.557397

G01 Z-0.125000 F100.0(Penetrate)
G03 X90.757348 Y96.557398 Z-0.125000 I-0.066086 J-0.026666 F400.000000
G03 X90.634777 Y95.926084 Z-0.125000 I1.564535 J-0.631314
G03 X90.757348 Y95.294770 Z-0.125000 I1.687105 J-0.000000
G03 X90.889520 Y95.294771 Z-0.125000 I0.066086 J0.026667
G03 X91.012088 Y95.926084 Z-0.125000 I-1.564571 J0.631313
G03 X90.889520 Y96.557397 Z-0.125000 I-1.687139 J0.000000
G01 X90.889520 Y96.557397 Z-0.125000
G00 Z5.000000

(End cutting path id: path51)


(Start cutting path id: path51)
(Change tool to Default tool)

G00 Z5.000000
G00 X95.050243 Y89.991740

G01 Z-0.125000 F100.0(Penetrate)
G02 X94.171434 Y93.171080 Z-0.125000 I56.717367 J17.388511 F400.000000
G02 X93.105388 Y97.875149 Z-0.125000 I123.140951 J30.379289
G03 X92.034921 Y102.551635 Z-0.125000 I-110.887375 J-22.921827
G03 X91.846712 Y102.883564 Z-0.125000 I-0.694715 J-0.174590
G03 X90.756063 Y102.388573 Z-0.125000 I-0.452352 J-0.452349
G03 X92.507858 Y92.987104 Z-0.125000 I40.693548 J2.718568
G03 X94.856204 Y87.424294 Z-0.125000 I29.545427 J9.195547
G03 X95.846153 Y86.835175 Z-0.125000 I0.989949 J0.537191
G03 X95.908955 Y86.915778 Z-0.125000 I0.000000 J0.064768
G03 X95.050243 Y89.991740 Z-0.125000 I-61.334910 J-15.464938
G01 X95.050243 Y89.991740 Z-0.125000
G00 Z5.000000

(End cutting path id: path51)


(Start cutting path id: path51)
(Change tool to Default tool)

G00 Z5.000000
G00 X78.342197 Y97.819448

G01 Z-0.125000 F100.0(Penetrate)
G03 X66.886915 Y97.892303 Z-0.125000 I-11.462988 J-901.752912 F400.000000
G03 X55.109873 Y97.819640 Z-0.125000 I-0.008146 J-953.110997
G03 X52.708732 Y97.779614 Z-0.125000 I3.430734 J-277.846593
G03 X52.370238 Y97.763160 Z-0.125000 I0.128962 J-6.143213
G01 X52.370543 Y97.747679 Z-0.125000
G03 X53.616821 Y97.716877 Z-0.125000 I1.906656 J51.916443
G03 X56.792779 Y97.691139 Z-0.125000 I4.380568 J344.588024
G03 X66.565138 Y97.674019 Z-0.125000 I9.795608 J2802.317666
G03 X76.341482 Y97.690852 Z-0.125000 I0.023434 J2825.398322
G03 X79.607981 Y97.716657 Z-0.125000 I-1.267586 J367.215183
G03 X80.956451 Y97.747849 Z-0.125000 I-0.772467 J62.557647
G01 X80.956885 Y97.762918 Z-0.125000
G03 X80.675583 Y97.778910 Z-0.125000 I-0.370596 J-4.036711
G03 X78.342197 Y97.819448 Z-0.125000 I-5.517586 J-250.420917
G01 X78.342197 Y97.819448 Z-0.125000
G00 Z5.000000

(End cutting path id: path51)


(Start cutting path id: path51)
(Change tool to Default tool)

G00 Z5.000000
G00 X80.327763 Y115.971198

G01 Z-0.125000 F100.0(Penetrate)
G03 X79.443925 Y116.084776 Z-0.125000 I-0.883839 J-3.382115 F400.000000
G03 X78.560086 Y115.971198 Z-0.125000 I0.000000 J-3.495694
G03 X78.560086 Y115.853805 Z-0.125000 I0.015339 J-0.058696
G03 X79.443925 Y115.740227 Z-0.125000 I0.883839 J3.382126
G03 X80.327763 Y115.853805 Z-0.125000 I0.000000 J3.495689
G03 X80.327763 Y115.971198 Z-0.125000 I-0.015339 J0.058696
G01 X80.327763 Y115.971198 Z-0.125000
G00 Z5.000000

(End cutting path id: path51)


(Start cutting path id: path51)
(Change tool to Default tool)

G00 Z5.000000
G00 X80.591965 Y116.939442

G01 Z-0.125000 F100.0(Penetrate)
G03 X80.601340 Y118.065698 Z-0.125000 I-0.567897 J0.567894 F400.000000
G03 X78.433824 Y119.170673 Z-0.125000 I-2.693589 J-2.605353
G03 X77.674696 Y119.231047 Z-0.125000 I-0.869885 J-6.134944
G03 X76.666147 Y119.202283 Z-0.125000 I-0.194459 J-10.877234
G03 X76.436122 Y118.865106 Z-0.125000 I0.019539 J-0.260381
G03 X77.073096 Y117.879818 Z-0.125000 I2.062021 J0.634524
G03 X79.418763 Y116.624663 Z-0.125000 I3.850835 J4.377145
G03 X80.591965 Y116.939439 Z-0.125000 I0.313789 J1.174189
G01 X80.591965 Y116.939442 Z-0.125000
G00 Z5.000000

(End cutting path id: path51)


(Start cutting path id: path51)
(Change tool to Default tool)

G00 Z5.000000
G00 X81.159576 Y119.074232

G01 Z-0.125000 F100.0(Penetrate)
G03 X81.124916 Y119.330761 Z-0.125000 I-0.173412 J0.107176 F400.000000
G03 X80.706551 Y119.495108 Z-0.125000 I-0.418365 J-0.450327
G03 X80.288185 Y119.330761 Z-0.125000 I0.000000 J-0.614673
G03 X80.253526 Y119.074232 Z-0.125000 I0.138753 J-0.149352
G03 X80.548299 Y118.715523 Z-0.125000 I1.474752 J0.911423
G03 X80.706551 Y118.653357 Z-0.125000 I0.158252 J0.170343
G03 X80.864802 Y118.715523 Z-0.125000 I0.000000 J0.232508
G03 X81.159576 Y119.074232 Z-0.125000 I-1.180003 J1.270154
G01 X81.159576 Y119.074232 Z-0.125000
G00 Z5.000000

(End cutting path id: path51)


(Start cutting path id: path51)
(Change tool to Default tool)

G00 Z5.000000
G00 X79.443925 Y120.872049

G01 Z-0.125000 F100.0(Penetrate)
G03 X79.364844 Y121.016182 Z-0.125000 I-0.170890 J0.000000 F400.000000
G03 X78.660117 Y121.371315 Z-0.125000 I-2.115399 J-3.321013
G03 X78.246688 Y121.365272 Z-0.125000 I-0.199172 J-0.519034
G03 X78.184874 Y121.172824 Z-0.125000 I0.051205 J-0.122598
G03 X79.040989 Y120.554033 Z-0.125000 I1.177837 J0.727946
G03 X79.443925 Y120.872049 Z-0.125000 I0.075971 J0.318016
G01 X79.443925 Y120.872049 Z-0.125000
G00 Z5.000000

(End cutting path id: path51)


(Start cutting path id: path51)
(Change tool to Default tool)

G00 Z5.000000
G00 X75.869723 Y116.594305

G01 Z-0.125000 F100.0(Penetrate)
G02 X75.584876 Y121.377906 Z-0.125000 I2.552257 J2.552260 F400.000000
G02 X80.464137 Y122.436008 Z-0.125000 I3.079600 J-2.422061
G02 X82.290889 Y120.716373 Z-0.125000 I-2.099954 J-4.060849
G02 X82.979278 Y118.217584 Z-0.125000 I-4.190992 J-2.498789
G02 X82.003502 Y116.093777 Z-0.125000 I-2.799155 J0.000000
G02 X79.369000 Y115.118003 Z-0.125000 I-2.634502 J3.068574
G02 X77.502439 Y115.495626 Z-0.125000 I0.000000 J4.801938
G02 X75.869723 Y116.594305 Z-0.125000 I1.993266 J4.724645
G01 X75.869723 Y116.594305 Z-0.125000
G00 Z5.000000

(End cutting path id: path51)


(Start cutting path id: path51)
(Change tool to Default tool)

G00 Z5.000000
G00 X76.858652 Y134.364678

G01 Z-0.125000 F100.0(Penetrate)
G03 X78.966329 Y136.140059 Z-0.125000 I-1.271998 J3.648852 F400.000000
G03 X79.948975 Y139.939513 Z-0.125000 I-6.854078 J3.799454
G03 X78.628502 Y143.797865 Z-0.125000 I-6.297187 J-0.000000
G03 X74.080935 Y147.508436 Z-0.125000 I-10.308848 J-7.992253
G03 X70.780685 Y148.600110 Z-0.125000 I-5.579973 J-11.334526
G03 X66.690410 Y148.864309 Z-0.125000 I-3.169611 J-17.276757
G03 X58.732487 Y145.922272 Z-0.125000 I0.748351 J-14.257937
G03 X56.211603 Y140.802080 Z-0.125000 I3.939394 J-5.120192
G03 X57.751817 Y137.375811 Z-0.125000 I4.581045 J-0.000000
G03 X63.282310 Y134.526795 Z-0.125000 I8.339953 J9.397080
G03 X71.698997 Y133.522781 Z-0.125000 I8.891482 J38.756914
G03 X76.858652 Y134.364678 Z-0.125000 I0.180609 J15.124810
G01 X76.858652 Y134.364678 Z-0.125000
G00 Z5.000000

(End cutting path id: path51)


(Start cutting path id: path51)
(Change tool to Default tool)

G00 Z5.000000
G00 X72.829516 Y140.130679

G01 Z-0.125000 F100.0(Penetrate)
G03 X69.803639 Y141.690342 Z-0.125000 I-3.951833 J-3.951829 F400.000000
G03 X63.875340 Y141.635026 Z-0.125000 I-2.808430 J-16.716374
G02 X61.567119 Y142.026943 Z-0.125000 I-0.622728 J3.325566
G02 X60.757057 Y143.426597 Z-0.125000 I0.804154 J1.399654
G02 X62.529126 Y146.026248 Z-0.125000 I2.792898 J0.000000
G02 X64.641698 Y144.952016 Z-0.125000 I0.579278 J-1.475194
G03 X65.166635 Y144.277663 Z-0.125000 I1.047524 J0.273935
G03 X66.993405 Y143.656022 Z-0.125000 I2.664456 J4.834921
G02 X69.089487 Y143.328435 Z-0.125000 I-59.552468 J-387.918616
G02 X70.637930 Y143.076341 Z-0.125000 I-33.719396 J-211.997449
G03 X72.069713 Y143.129423 Z-0.125000 I0.586358 J3.520465
G03 X72.846238 Y143.614760 Z-0.125000 I-0.345361 J1.416444
G02 X74.118022 Y144.176199 Z-0.125000 I1.199162 J-0.995213
G02 X75.577768 Y143.487326 Z-0.125000 I-0.097902 J-2.098521
G02 X76.264454 Y141.738271 Z-0.125000 I-1.969854 J-1.782698
G02 X75.619988 Y140.154078 Z-0.125000 I-2.200812 J-0.027871
G02 X74.213060 Y139.564387 Z-0.125000 I-1.423813 J1.423818
G02 X72.829533 Y140.130678 Z-0.125000 I-0.016215 J1.933604
G01 X72.829516 Y140.130679 Z-0.125000
G00 Z5.000000

(End cutting path id: path51)


(Start cutting path id: path51)
(Change tool to Default tool)

G00 Z5.000000
G00 X71.226334 Y142.190815

G01 Z-0.125000 F100.0(Penetrate)
G03 X70.888944 Y142.338771 Z-0.125000 I-0.358240 J-0.358251 F400.000000
G03 X70.258319 Y142.230685 Z-0.125000 I-0.062889 J-1.526808
G03 X70.226069 Y142.073508 Z-0.125000 I0.035704 J-0.089223
G03 X70.563456 Y141.925551 Z-0.125000 I0.358237 J0.358238
G03 X71.194084 Y142.033635 Z-0.125000 I0.062891 J1.526831
G03 X71.226334 Y142.190813 Z-0.125000 I-0.035704 J0.089223
G01 X71.226334 Y142.190815 Z-0.125000
G00 Z5.000000

(End cutting path id: path51)


(Start cutting path id: path51)
(Change tool to Default tool)

G00 Z5.000000
G00 X67.690981 Y142.695865

G01 Z-0.125000 F100.0(Penetrate)
G03 X67.353591 Y142.843821 Z-0.125000 I-0.358241 J-0.358249 F400.000000
G03 X66.722966 Y142.735735 Z-0.125000 I-0.062889 J-1.526799
G03 X66.690716 Y142.578557 Z-0.125000 I0.035704 J-0.089223
G03 X67.028102 Y142.430600 Z-0.125000 I0.358236 J0.358235
G03 X67.658731 Y142.538685 Z-0.125000 I0.062891 J1.526830
G03 X67.690981 Y142.695863 Z-0.125000 I-0.035705 J0.089224
G01 X67.690981 Y142.695865 Z-0.125000
G00 Z5.000000

(End cutting path id: path51)


(Start cutting path id: path51)
(Change tool to Default tool)

G00 Z5.000000
G00 X63.787360 Y143.653357

G01 Z-0.125000 F100.0(Penetrate)
G03 X63.565471 Y144.189043 Z-0.125000 I-0.757574 J-0.000000 F400.000000
G03 X63.029784 Y144.410932 Z-0.125000 I-0.535687 J-0.535688
G03 X62.494098 Y144.189043 Z-0.125000 I-0.000000 J-0.757575
G03 X62.272209 Y143.653357 Z-0.125000 I0.535686 J-0.535686
G03 X62.494098 Y143.117670 Z-0.125000 I0.757577 J-0.000000
G03 X63.029784 Y142.895781 Z-0.125000 I0.535686 J0.535686
G03 X63.565471 Y143.117670 Z-0.125000 I-0.000000 J0.757576
G03 X63.787360 Y143.653357 Z-0.125000 I-0.535687 J0.535687
G01 X63.787360 Y143.653357 Z-0.125000
G00 Z5.000000

(End cutting path id: path51)


(Start cutting path id: path51)
(Change tool to Default tool)

G00 Z5.000000
G00 X67.185931 Y133.099906

G01 Z-0.125000 F100.0(Penetrate)
G03 X66.848540 Y133.247862 Z-0.125000 I-0.358242 J-0.358255 F400.000000
G03 X66.217916 Y133.139776 Z-0.125000 I-0.062889 J-1.526801
G03 X66.185666 Y132.982599 Z-0.125000 I0.035704 J-0.089223
G03 X66.523052 Y132.834641 Z-0.125000 I0.358237 J0.358236
G03 X67.153681 Y132.942726 Z-0.125000 I0.062891 J1.526830
G03 X67.185931 Y133.099904 Z-0.125000 I-0.035705 J0.089224
G01 X67.185931 Y133.099906 Z-0.125000
G00 Z5.000000

(End cutting path id: path51)


(Start cutting path id: path51)
(Change tool to Default tool)

G00 Z5.000000
G00 X74.898470 Y141.885680

G01 Z-0.125000 F100.0(Penetrate)
G03 X74.458565 Y142.675507 Z-0.125000 I-0.929000 J0.000000 F400.000000
G03 X73.754819 Y142.593879 Z-0.125000 I-0.300349 J-0.485025
G03 X73.530685 Y141.494482 Z-0.125000 I0.719157 J-0.719160
G03 X74.447455 Y140.875579 Z-0.125000 I0.916770 J0.369546
G03 X74.721020 Y141.053026 Z-0.125000 I0.000000 J0.299596
G03 X74.898470 Y141.885680 Z-0.125000 I-1.864811 J0.832654
G01 X74.898470 Y141.885680 Z-0.125000
G00 Z5.000000

(End cutting path id: path51)


(Start cutting path id: path51)
(Change tool to Default tool)

G00 Z5.000000
G00 X79.443925 Y145.090231

G01 Z-0.125000 F100.0(Penetrate)
G03 X79.383374 Y145.236413 Z-0.125000 I-0.206732 J-0.000000 F400.000000
G03 X78.307561 Y146.226595 Z-0.125000 I-12.483508 J-12.483565
G01 X77.171197 Y147.188710 Z-0.125000
G01 X78.133314 Y146.052346 Z-0.125000
G03 X79.262831 Y144.998520 Z-0.125000 I5.028506 J4.257444
G03 X79.443925 Y145.090231 Z-0.125000 I0.067325 J0.091711
G01 X79.443925 Y145.090231 Z-0.125000
G00 Z5.000000

(End cutting path id: path51)


(Start cutting path id: path51)
(Change tool to Default tool)

G00 Z5.000000
G00 X29.295309 Y132.921033

G01 Z-0.125000 F100.0(Penetrate)
G03 X29.184876 Y132.921033 Z-0.125000 I-0.055217 J-0.010635 F400.000000
G03 X29.076436 Y131.784670 Z-0.125000 I5.899876 J-1.136363
G03 X29.184875 Y130.648306 Z-0.125000 I6.008359 J0.000000
G03 X29.295309 Y130.648306 Z-0.125000 I0.055217 J0.010635
G03 X29.403749 Y131.784670 Z-0.125000 I-5.899877 J1.136363
G03 X29.295309 Y132.921033 Z-0.125000 I-6.008317 J0.000000
G01 X29.295309 Y132.921033 Z-0.125000
G00 Z5.000000

(End cutting path id: path51)


(Start cutting path id: path51)
(Change tool to Default tool)

G00 Z5.000000
G00 X28.123222 Y131.903291

G01 Z-0.125000 F100.0(Penetrate)
G03 X27.223793 Y135.503046 Z-0.125000 I-8.321109 J-0.166856 F400.000000
G03 X25.876541 Y136.330124 Z-0.125000 I-1.347252 J-0.683750
G03 X24.916451 Y135.712032 Z-0.125000 I-0.000000 J-1.054706
G03 X24.116705 Y132.460340 Z-0.125000 I8.257015 J-3.754988
G03 X24.404347 Y129.981930 Z-0.125000 I7.317463 J-0.406638
G03 X25.062320 Y129.251736 Z-0.125000 I1.090972 J0.321522
G03 X26.180575 Y128.933575 Z-0.125000 I1.956353 J4.751818
G03 X27.171201 Y128.903126 Z-0.125000 I0.609025 J3.684228
G03 X27.758466 Y129.380891 Z-0.125000 I-0.070519 J0.686495
G03 X28.123222 Y131.903291 Z-0.125000 I-7.454861 J2.365595
G01 X28.123222 Y131.903291 Z-0.125000
G00 Z5.000000

(End cutting path id: path51)


(Start cutting path id: path51)
(Change tool to Default tool)

G00 Z5.000000
G00 X23.223279 Y133.899569

G01 Z-0.125000 F100.0(Penetrate)
G03 X23.066101 Y133.931819 Z-0.125000 I-0.089223 J-0.035704 F400.000000
G03 X22.918145 Y133.594434 Z-0.125000 I0.358236 J-0.358235
G03 X23.026230 Y132.963804 Z-0.125000 I1.526832 J-0.062891
G03 X23.183407 Y132.931555 Z-0.125000 I0.089223 J0.035704
G03 X23.331363 Y133.268939 Z-0.125000 I-0.358234 J0.358234
G03 X23.223277 Y133.899569 Z-0.125000 I-1.526820 J0.062889
G01 X23.223279 Y133.899569 Z-0.125000
G00 Z5.000000

(End cutting path id: path51)


(Start cutting path id: path51)
(Change tool to Default tool)

G00 Z5.000000
G00 X22.037065 Y130.853090

G01 Z-0.125000 F100.0(Penetrate)
G03 X22.643213 Y134.314772 Z-0.125000 I-3.957503 J2.476877 F400.000000
G03 X20.702228 Y137.038811 Z-0.125000 I-4.133971 J-0.892084
G03 X19.348402 Y136.672088 Z-0.125000 I-0.502245 J-0.828178
G03 X18.332818 Y132.666241 Z-0.125000 I7.392490 J-4.005847
G01 X18.332818 Y129.700469 Z-0.125000
G01 X19.923298 Y129.858731 Z-0.125000
G03 X21.364940 Y130.256850 Z-0.125000 I-0.436965 J4.391558
G03 X22.037065 Y130.853090 Z-0.125000 I-0.677990 J1.441232
G01 X22.037065 Y130.853090 Z-0.125000
G00 Z5.000000

(End cutting path id: path51)


(Start cutting path id: path51)
(Change tool to Default tool)

G00 Z5.000000
G00 X17.667724 Y131.374316

G01 Z-0.125000 F100.0(Penetrate)
G03 X17.510546 Y131.406566 Z-0.125000 I-0.089224 J-0.035704 F400.000000
G03 X17.362589 Y131.069181 Z-0.125000 I0.358236 J-0.358236
G03 X17.470674 Y130.438552 Z-0.125000 I1.526826 J-0.062890
G03 X17.627852 Y130.406302 Z-0.125000 I0.089223 J0.035705
G03 X17.775808 Y130.743688 Z-0.125000 I-0.358238 J0.358236
G03 X17.667722 Y131.374316 Z-0.125000 I-1.526813 J0.062889
G01 X17.667724 Y131.374316 Z-0.125000
G00 Z5.000000

(End cutting path id: path51)


(Start cutting path id: path51)
(Change tool to Default tool)

G00 Z5.000000
G00 X15.902614 Y128.778432

G01 Z-0.125000 F100.0(Penetrate)
G03 X16.498058 Y130.154696 Z-0.125000 I-2.608422 J1.945482 F400.000000
G03 X16.515982 Y132.230799 Z-0.125000 I-6.141603 J1.091154
G03 X15.518725 Y134.498275 Z-0.125000 I-4.833958 J-0.772981
G03 X14.728730 Y134.746873 Z-0.125000 I-0.578336 J-0.458312
G03 X13.925303 Y134.092623 Z-0.125000 I0.388493 J-1.297507
G03 X12.970980 Y131.169373 Z-0.125000 I7.585520 J-4.093765
G03 X12.808564 Y128.829093 Z-0.125000 I17.376441 J-2.381709
G03 X12.963480 Y127.987524 Z-0.125000 I2.333390 J-0.005512
G03 X13.977481 Y127.471475 Z-0.125000 I0.793226 J0.304389
G03 X15.902635 Y128.778432 Z-0.125000 I-0.923406 J3.431542
G01 X15.902614 Y128.778432 Z-0.125000
G00 Z5.000000

(End cutting path id: path51)


(Start cutting path id: path51)
(Change tool to Default tool)

G00 Z5.000000
G00 X23.226417 Y122.567498

G01 Z-0.125000 F100.0(Penetrate)
G03 X23.109024 Y122.567498 Z-0.125000 I-0.058697 J-0.015339 F400.000000
G03 X22.995446 Y121.683660 Z-0.125000 I3.382128 J-0.883838
G03 X23.109024 Y120.799821 Z-0.125000 I3.495704 J-0.000000
G03 X23.226417 Y120.799821 Z-0.125000 I0.058696 J0.015339
G03 X23.339995 Y121.683660 Z-0.125000 I-3.382115 J0.883839
G03 X23.226417 Y122.567498 Z-0.125000 I-3.495694 J-0.000000
G01 X23.226417 Y122.567498 Z-0.125000
G00 Z5.000000

(End cutting path id: path51)


(Start cutting path id: path51)
(Change tool to Default tool)

G00 Z5.000000
G00 X30.744534 Y122.428319

G01 Z-0.125000 F100.0(Penetrate)
G03 X31.586611 Y126.825438 Z-0.125000 I-4.915026 J3.220450 F400.000000
G03 X29.626211 Y127.899950 Z-0.125000 I-1.435485 J-0.293393
G03 X27.729082 Y126.303929 Z-0.125000 I1.358593 J-3.540440
G03 X26.918676 Y123.366471 Z-0.125000 I4.918460 J-2.937458
G03 X28.383797 Y121.498677 Z-0.125000 I1.923129 J0.000000
G03 X30.744534 Y122.428319 Z-0.125000 I0.523198 J2.133643
G01 X30.744534 Y122.428319 Z-0.125000
G00 Z5.000000

(End cutting path id: path51)


(Start cutting path id: path51)
(Change tool to Default tool)

G00 Z5.000000
G00 X30.354191 Y117.011942

G01 Z-0.125000 F100.0(Penetrate)
G03 X31.210785 Y118.000812 Z-0.125000 I-2.981501 J3.448121 F400.000000
G03 X31.729534 Y119.158407 Z-0.125000 I-3.608277 J2.311995
G03 X31.675726 Y119.743992 Z-0.125000 I-0.794569 J0.222254
G03 X31.419885 Y119.789720 Z-0.125000 I-0.144692 J-0.070969
G02 X29.322283 Y118.952368 Z-0.125000 I-2.093265 J2.197751
G02 X26.744277 Y119.796420 Z-0.125000 I0.006256 J4.378162
G02 X26.046991 Y120.563595 Z-0.125000 I1.527131 J2.088479
G02 X25.193670 Y122.406868 Z-0.125000 I8.539118 J5.072237
G03 X24.527781 Y123.353253 Z-0.125000 I-1.966088 J-0.675910
G03 X24.154003 Y123.240116 Z-0.125000 I-0.148084 J-0.184769
G03 X24.797479 Y118.495829 Z-0.125000 I5.332622 J-1.692509
G03 X28.756664 Y116.167994 Z-0.125000 I4.315123 J2.808358
G03 X29.281700 Y116.279034 Z-0.125000 I0.067689 J0.976743
G03 X30.354191 Y117.011960 Z-0.125000 I-2.679720 J5.072386
G01 X30.354191 Y117.011942 Z-0.125000
G00 Z5.000000

(End cutting path id: path51)


(Start cutting path id: path51)
(Change tool to Default tool)

G00 Z5.000000
G00 X29.812195 Y115.423138

G01 Z-0.125000 F100.0(Penetrate)
G03 X29.474809 Y115.571094 Z-0.125000 I-0.358236 J-0.358238 F400.000000
G03 X28.844181 Y115.463008 Z-0.125000 I-0.062889 J-1.526813
G03 X28.811931 Y115.305830 Z-0.125000 I0.035705 J-0.089224
G03 X29.149316 Y115.157873 Z-0.125000 I0.358235 J0.358235
G03 X29.779945 Y115.265958 Z-0.125000 I0.062891 J1.526830
G03 X29.812195 Y115.423135 Z-0.125000 I-0.035704 J0.089223
G01 X29.812195 Y115.423138 Z-0.125000
G00 Z5.000000

(End cutting path id: path51)


(Start cutting path id: path51)
(Change tool to Default tool)

G00 Z5.000000
G00 X35.361898 Y112.459543

G01 Z-0.125000 F100.0(Penetrate)
G03 X35.253689 Y112.461738 Z-0.125000 I-0.054293 J-0.008210 F400.000000
G03 X35.143935 Y111.330124 Z-0.125000 I5.949413 J-1.148157
G03 X35.246794 Y109.936486 Z-0.125000 I9.153322 J-0.025043
G03 X35.355004 Y109.934291 Z-0.125000 I0.054294 J0.008210
G03 X35.464759 Y111.065906 Z-0.125000 I-5.949423 J1.148163
G03 X35.361904 Y112.459543 Z-0.125000 I-9.154253 J0.025000
G01 X35.361898 Y112.459543 Z-0.125000
G00 Z5.000000

(End cutting path id: path51)


(Start cutting path id: path51)
(Change tool to Default tool)

G00 Z5.000000
G00 X34.839440 Y106.626841

G01 Z-0.125000 F100.0(Penetrate)
G03 X34.682262 Y106.659091 Z-0.125000 I-0.089224 J-0.035704 F400.000000
G03 X34.534305 Y106.321707 Z-0.125000 I0.358234 J-0.358235
G03 X34.642390 Y105.691078 Z-0.125000 I1.526827 J-0.062890
G03 X34.799568 Y105.658828 Z-0.125000 I0.089223 J0.035705
G03 X34.947524 Y105.996213 Z-0.125000 I-0.358234 J0.358234
G03 X34.839438 Y106.626841 Z-0.125000 I-1.526814 J0.062889
G01 X34.839440 Y106.626841 Z-0.125000
G00 Z5.000000

(End cutting path id: path51)


(Start cutting path id: path51)
(Change tool to Default tool)

G00 Z5.000000
G00 X42.415197 Y103.091488

G01 Z-0.125000 F100.0(Penetrate)
G03 X42.258020 Y103.123738 Z-0.125000 I-0.089223 J-0.035704 F400.000000
G03 X42.110062 Y102.786351 Z-0.125000 I0.358238 J-0.358238
G03 X42.218146 Y102.155723 Z-0.125000 I1.526827 J-0.062891
G03 X42.375325 Y102.123473 Z-0.125000 I0.089224 J0.035705
G03 X42.523281 Y102.460863 Z-0.125000 I-0.358249 J0.358241
G03 X42.415195 Y103.091488 Z-0.125000 I-1.526799 J0.062889
G01 X42.415197 Y103.091488 Z-0.125000
G00 Z5.000000

(End cutting path id: path51)


(Start cutting path id: path51)
(Change tool to Default tool)

G00 Z5.000000
G00 X42.415197 Y96.525827

G01 Z-0.125000 F100.0(Penetrate)
G03 X42.258020 Y96.558077 Z-0.125000 I-0.089223 J-0.035704 F400.000000
G03 X42.110062 Y96.220691 Z-0.125000 I0.358236 J-0.358237
G03 X42.218147 Y95.590062 Z-0.125000 I1.526830 J-0.062891
G03 X42.375325 Y95.557812 Z-0.125000 I0.089224 J0.035705
G03 X42.523281 Y95.895202 Z-0.125000 I-0.358249 J0.358241
G03 X42.415195 Y96.525827 Z-0.125000 I-1.526799 J0.062889
G01 X42.415197 Y96.525827 Z-0.125000
G00 Z5.000000

(End cutting path id: path51)


(Start cutting path id: path51)
(Change tool to Default tool)

G00 Z5.000000
G00 X40.566093 Y93.345008

G01 Z-0.125000 F100.0(Penetrate)
G03 X41.700986 Y98.469369 Z-0.125000 I-16.828632 J6.414893 F400.000000
G03 X41.313921 Y103.754367 Z-0.125000 I-18.311750 J1.315549
G02 X41.329642 Y104.478287 Z-0.125000 I1.489221 J0.329790
G02 X41.516556 Y104.511942 Z-0.125000 I0.101369 J-0.027114
G03 X41.816076 Y104.595000 Z-0.125000 I0.134735 J0.095713
G03 X41.592106 Y105.495702 Z-0.125000 I-1.469302 J0.112839
G03 X41.256777 Y105.560061 Z-0.125000 I-0.197866 J-0.125180
G03 X40.895729 Y104.990655 Z-0.125000 I0.535972 J-0.739018
G02 X40.636653 Y103.759773 Z-0.125000 I-30.036917 J5.679476
G02 X38.695009 Y95.507397 Z-0.125000 I-1352.695218 J313.911532
G01 X36.728050 Y87.260422 Z-0.125000
G01 X38.128281 Y88.941740 Z-0.125000
G03 X39.350043 Y90.727457 Z-0.125000 I-8.819052 J7.344685
G03 X40.566093 Y93.345008 Z-0.125000 I-17.866801 J9.891725
G01 X40.566093 Y93.345008 Z-0.125000
G00 Z5.000000

(End cutting path id: path51)


(Start cutting path id: path51)
(Change tool to Default tool)

G00 Z5.000000
G00 X28.897505 Y93.930286

G01 Z-0.125000 F100.0(Penetrate)
G03 X35.532437 Y98.629975 Z-0.125000 I-8.875941 J19.564266 F400.000000
G03 X38.508570 Y103.959230 Z-0.125000 I-8.741711 J8.377468
G03 X38.925171 Y105.786711 Z-0.125000 I-29.882243 J7.773322
G03 X40.045044 Y111.788806 Z-0.125000 I-321.497912 J63.090707
G02 X42.754151 Y122.249620 Z-0.125000 I68.044794 J-12.040808
G02 X45.583592 Y127.870528 Z-0.125000 I22.157760 J-7.631136
G03 X46.841048 Y130.388058 Z-0.125000 I-8.449185 J5.793002
G03 X46.563551 Y130.774569 Z-0.125000 I-0.277497 J0.093640
G03 X41.665272 Y130.072446 Z-0.125000 I-0.000000 J-17.437188
G03 X36.133697 Y127.721796 Z-0.125000 I7.226322 J-24.688870
G03 X34.018208 Y125.898779 Z-0.125000 I3.622257 J-6.342336
G03 X33.484332 Y124.358152 Z-0.125000 I1.955986 J-1.540627
G03 X33.722609 Y122.562557 Z-0.125000 I6.884704 J0.000000
G03 X34.607236 Y120.201702 Z-0.125000 I12.876215 J3.478631
G02 X36.348819 Y113.546270 Z-0.125000 I-15.782464 J-7.685513
G02 X35.470287 Y105.519245 Z-0.125000 I-24.143389 J-1.419172
G02 X34.849307 Y104.209711 Z-0.125000 I-4.217228 J1.197805
G02 X34.591922 Y104.259417 Z-0.125000 I-0.117651 J0.082027
G01 X34.358280 Y105.269518 Z-0.125000
G01 X33.931112 Y104.259417 Z-0.125000
G02 X33.793355 Y104.284606 Z-0.125000 I-0.066072 J0.027942
G02 X33.872922 Y105.774569 Z-0.125000 I8.137862 J0.312528
G03 X34.414730 Y115.233870 Z-0.125000 I-53.413286 J7.804560
G03 X33.519287 Y117.305265 Z-0.125000 I-3.060706 J-0.093868
G03 X33.150288 Y117.432418 Z-0.125000 I-0.314927 J-0.314926
G03 X32.979277 Y117.239215 Z-0.125000 I0.023631 J-0.193203
G02 X32.040061 Y115.543189 Z-0.125000 I-2.000941 J0.000000
G02 X28.812610 Y114.630849 Z-0.125000 I-3.177525 J5.075856
G02 X24.348301 Y116.633902 Z-0.125000 I0.050777 J6.089615
G02 X22.376545 Y121.741812 Z-0.125000 I5.653418 J5.116857
G02 X22.714678 Y124.459762 Z-0.125000 I10.988802 J0.012919
G02 X23.441838 Y125.936273 Z-0.125000 I3.846054 J-0.976812
G03 X23.931897 Y127.215363 Z-0.125000 I-1.817798 J1.429879
G03 X23.575279 Y127.978623 Z-0.125000 I-0.873019 J0.057041
G03 X22.618791 Y128.358473 Z-0.125000 I-1.211815 J-1.657255
G03 X21.782286 Y128.203354 Z-0.125000 I-0.174485 J-1.392114
G02 X20.891353 Y127.876337 Z-0.125000 I-1.609002 J3.006456
G02 X19.651071 Y127.744266 Z-0.125000 I-1.240282 J5.757727
G03 X18.449264 Y127.511272 Z-0.125000 I0.000000 J-3.216018
G03 X16.517087 Y126.481639 Z-0.125000 I3.844048 J-9.541368
G02 X14.588667 Y125.439783 Z-0.125000 I-6.109840 J9.003357
G02 X13.483822 Y125.219013 Z-0.125000 I-1.104845 J2.654219
G03 X12.529550 Y124.582263 Z-0.125000 I0.000000 J-1.033440
G03 X10.759212 Y118.664718 Z-0.125000 I27.662974 J-11.499453
G03 X10.348838 Y108.491196 Z-0.125000 I34.124197 J-6.471522
G03 X12.690190 Y100.651346 Z-0.125000 I22.301017 J2.390600
G03 X20.131407 Y93.786499 Z-0.125000 I13.065046 J6.696569
G03 X28.897500 Y93.930286 Z-0.125000 I4.217412 J10.169954
G01 X28.897505 Y93.930286 Z-0.125000
G00 Z5.000000

(End cutting path id: path51)


(Start cutting path id: path51)
(Change tool to Default tool)

G00 Z5.000000
G00 X15.807566 Y95.090230

G01 Z-0.125000 F100.0(Penetrate)
G03 X15.747015 Y95.236412 Z-0.125000 I-0.206732 J0.000000 F400.000000
G03 X14.671202 Y96.226594 Z-0.125000 I-12.483259 J-12.483298
G01 X13.534839 Y97.188710 Z-0.125000
G01 X14.496954 Y96.052346 Z-0.125000
G03 X15.626472 Y94.998519 Z-0.125000 I5.028515 J4.257455
G03 X15.807566 Y95.090230 Z-0.125000 I0.067324 J0.091711
G01 X15.807566 Y95.090230 Z-0.125000
G00 Z5.000000

(End cutting path id: path51)


(Start cutting path id: path51)
(Change tool to Default tool)

G00 Z5.000000
G00 X9.586918 Y117.232902

G01 Z-0.125000 F100.0(Penetrate)
G03 X9.429739 Y117.265152 Z-0.125000 I-0.089224 J-0.035705 F400.000000
G03 X9.281783 Y116.927767 Z-0.125000 I0.358236 J-0.358236
G03 X9.389867 Y116.297138 Z-0.125000 I1.526830 J-0.062891
G03 X9.547045 Y116.264888 Z-0.125000 I0.089223 J0.035704
G03 X9.695001 Y116.602274 Z-0.125000 I-0.358238 J0.358236
G03 X9.586915 Y117.232902 Z-0.125000 I-1.526813 J0.062889
G01 X9.586918 Y117.232902 Z-0.125000
G00 Z5.000000

(End cutting path id: path51)


(Start cutting path id: path51)
(Change tool to Default tool)

G00 Z5.000000
G00 X42.575241 Y47.126900

G01 Z-0.125000 F100.0(Penetrate)
G03 X42.509510 Y47.285589 Z-0.125000 I-0.224421 J-0.000000 F400.000000
G03 X41.691402 Y48.010740 Z-0.125000 I-6.428255 J-6.428228
G03 X41.511551 Y47.999904 Z-0.125000 I-0.083813 J-0.106871
G03 X41.500718 Y47.820050 Z-0.125000 I0.096041 J-0.096038
G03 X42.378473 Y47.019675 Z-0.125000 I2.821422 J2.212701
G03 X42.575241 Y47.126900 Z-0.125000 I0.069168 J0.107225
G01 X42.575241 Y47.126900 Z-0.125000
G00 Z5.000000

(End cutting path id: path51)


(Start cutting path id: path51)
(Change tool to Default tool)

G00 Z5.000000
G00 X44.440387 Y42.759930

G01 Z-0.125000 F100.0(Penetrate)
G03 X44.315473 Y42.768032 Z-0.125000 I-0.063798 J-0.016625 F400.000000
G03 X44.188851 Y42.138230 Z-0.125000 I1.609632 J-0.651246
G03 X44.296761 Y41.252882 Z-0.125000 I3.346818 J-0.041327
G03 X44.421673 Y41.244780 Z-0.125000 I0.063797 J0.016625
G03 X44.548294 Y41.874585 Z-0.125000 I-1.609657 J0.651249
G03 X44.440383 Y42.759930 Z-0.125000 I-3.346708 J0.041333
G01 X44.440387 Y42.759930 Z-0.125000
G00 Z5.000000

(End cutting path id: path51)


(Start cutting path id: path51)
(Change tool to Default tool)

G00 Z5.000000
G00 X43.181559 Y40.531120

G01 Z-0.125000 F100.0(Penetrate)
G01 X43.752406 Y44.479580 Z-0.125000 F400.000000
G01 X41.843086 Y46.339210 Z-0.125000
G01 X39.933766 Y48.198830 Z-0.125000
G01 X40.211521 Y41.128120 Z-0.125000
G03 X40.574222 Y34.869096 Z-0.125000 I168.221005 J6.608144
G03 X40.832899 Y33.289320 Z-0.125000 I9.313197 J0.713902
G03 X41.250498 Y33.171140 Z-0.125000 I0.242938 J0.061541
G03 X41.938693 Y34.309940 Z-0.125000 I-1.830522 J1.883557
G03 X42.506165 Y36.605556 Z-0.125000 I-25.117651 J7.426988
G03 X43.181559 Y40.531120 Z-0.125000 I-72.877533 J14.559468
G01 X43.181559 Y40.531120 Z-0.125000
G00 Z5.000000

(End cutting path id: path51)


(Start cutting path id: path51)
(Change tool to Default tool)

G00 Z5.000000
G00 X43.919827 Y39.486720

G01 Z-0.125000 F100.0(Penetrate)
G03 X43.787652 Y39.486719 Z-0.125000 I-0.066087 J-0.026667 F400.000000
G03 X43.665086 Y38.855400 Z-0.125000 I1.564629 J-0.631319
G03 X43.787655 Y38.224090 Z-0.125000 I1.687111 J0.000000
G03 X43.919827 Y38.224090 Z-0.125000 I0.066086 J0.026666
G03 X44.042395 Y38.855397 Z-0.125000 I-1.564535 J0.631307
G03 X43.919827 Y39.486720 Z-0.125000 I-1.687190 J0.000000
G01 X43.919827 Y39.486720 Z-0.125000
G00 Z5.000000

(End cutting path id: path51)


(Start cutting path id: path51)
(Change tool to Default tool)

G00 Z5.000000
G00 X43.425298 Y36.424850

G01 Z-0.125000 F100.0(Penetrate)
G03 X43.268121 Y36.457099 Z-0.125000 I-0.089223 J-0.035704 F400.000000
G03 X43.120163 Y36.119710 Z-0.125000 I0.358243 J-0.358240
G03 X43.228247 Y35.489081 Z-0.125000 I1.526833 J-0.062892
G03 X43.385426 Y35.456830 Z-0.125000 I0.089224 J0.035705
G03 X43.533383 Y35.794224 Z-0.125000 I-0.358258 J0.358245
G03 X43.425296 Y36.424850 Z-0.125000 I-1.526799 J0.062888
G01 X43.425298 Y36.424850 Z-0.125000
G00 Z5.000000

(End cutting path id: path51)


(Start cutting path id: path51)
(Change tool to Default tool)

G00 Z5.000000
G00 X113.514210 Y51.020290

G01 Z-0.125000 F100.0(Penetrate)
G03 X114.920105 Y54.064948 Z-0.125000 I-4.181559 J3.777789 F400.000000
G03 X114.076470 Y55.305490 Z-0.125000 I-1.118168 J0.146715
G03 X112.376583 Y55.038517 Z-0.125000 I-0.535698 J-2.134377
G03 X109.225280 Y52.281130 Z-0.125000 I6.894146 J-11.058471
G03 X107.698877 Y49.454525 Z-0.125000 I6.375141 J-5.268098
G03 X108.067270 Y48.533400 Z-0.125000 I0.753575 J-0.232847
G03 X110.010347 Y48.453785 Z-0.125000 I1.050051 J1.876350
G03 X113.514210 Y51.020290 Z-0.125000 I-4.454372 J9.756267
G01 X113.514210 Y51.020290 Z-0.125000
G00 Z5.000000

(End cutting path id: path51)


(Footer)
M5
G00 X0.0000 Y0.0000
M2
(Using default footer. To add your own footer create file "footer" in the output dir.)
(end)
%