%
(Header)
(Generated by gcodetools from Inkscape.)
(Using default header. To add your own header create file "header" in the output dir.)
M3
(Header end.)
G21 (All units in mm)

(Start cutting path id: path3578)
(Change tool to Default tool)

G00 Z5.000000
G00 X53.953558 Y37.624714

G01 Z-1.000000 F100.0(Penetrate)
G02 X48.017235 Y38.256886 Z-1.000000 I2.231158 J49.139577 F400.000000
G02 X41.898228 Y39.654541 Z-1.000000 I9.028286 J53.619805
G02 X30.355938 Y44.730825 Z-1.000000 I13.340953 J45.994608
G02 X22.041846 Y51.729598 Z-1.000000 I18.484367 J30.395930
G02 X19.361104 Y55.224014 Z-1.000000 I26.201401 J22.875880
G02 X17.327243 Y58.755272 Z-1.000000 I24.726464 J16.592781
G02 X15.264295 Y64.558372 Z-1.000000 I24.646928 J12.029981
G02 X14.578210 Y70.547104 Z-1.000000 I25.585959 J5.964863
G02 X15.272235 Y76.551097 Z-1.000000 I26.523240 J-0.023816
G02 X17.330027 Y82.338935 Z-1.000000 I26.682906 J-6.227037
G02 X23.690456 Y91.071286 Z-1.000000 I27.790315 J-13.559212
G02 X33.969081 Y98.334807 Z-1.000000 I29.086721 J-30.256274
G02 X41.959264 Y101.449774 Z-1.000000 I20.703028 J-41.299942
G02 X51.318518 Y103.300724 Z-1.000000 I15.733620 J-54.968600
G02 X57.666534 Y103.587771 Z-1.000000 I5.328043 J-47.492780
G02 X64.649319 Y103.016148 Z-1.000000 I-1.239895 J-58.081892
G02 X81.343622 Y97.569745 Z-1.000000 I-7.205287 J-50.394508
G02 X92.782109 Y88.057519 Z-1.000000 I-17.153468 J-32.260633
G02 X96.689882 Y81.701644 Z-1.000000 I-24.222426 J-19.271879
G02 X98.902669 Y74.727341 Z-1.000000 I-27.053540 J-12.421655
G02 X99.281460 Y70.617120 Z-1.000000 I-22.055360 J-4.105150
G02 X98.900669 Y66.403380 Z-1.000000 I-23.563429 J0.005326
G02 X97.220611 Y60.604059 Z-1.000000 I-29.168138 J5.306968
G02 X94.399839 Y55.263836 Z-1.000000 I-27.502898 J11.112276
G02 X82.846203 Y44.453915 Z-1.000000 I-28.788048 J19.189425
G02 X64.462449 Y38.065018 Z-1.000000 I-26.076668 J45.390756
G02 X57.928063 Y37.351751 Z-1.000000 I-12.462478 J83.883250
G02 X56.390889 Y37.499405 Z-1.000000 I-0.327186 J4.669093
G03 X56.323974 Y37.509969 Z-1.000000 I-0.083473 J-0.311517
G03 X53.953468 Y37.624714 Z-1.000000 I-20.325782 J-395.366125
G01 X53.953558 Y37.624714 Z-1.000000
G00 Z5.000000

(End cutting path id: path3578)


(Start cutting path id: path3578)
(Change tool to Default tool)

G00 Z5.000000
G00 X60.551229 Y45.122405

G01 Z-1.000000 F100.0(Penetrate)
G03 X73.110443 Y48.345710 Z-1.000000 I-3.866530 J41.144840 F400.000000
G03 X82.486949 Y54.623876 Z-1.000000 I-12.440631 J28.721246
G03 X89.021056 Y66.038063 Z-1.000000 I-16.608483 J17.084941
G03 X88.203089 Y77.951708 Z-1.000000 I-19.078831 J4.674989
G03 X85.940478 Y82.275011 Z-1.000000 I-21.691646 J-8.598651
G03 X82.646269 Y86.306765 Z-1.000000 I-22.118976 J-14.710993
G03 X76.236357 Y91.193548 Z-1.000000 I-21.033245 J-20.941677
G03 X67.919309 Y94.644749 Z-1.000000 I-18.250956 J-32.235749
G03 X53.199668 Y96.031176 Z-1.000000 I-11.222428 J-40.315926
G03 X39.565183 Y92.266935 Z-1.000000 I3.200892 J-38.168873
G03 X34.798340 Y89.431821 Z-1.000000 I14.976353 J-30.605565
G03 X30.882260 Y86.093876 Z-1.000000 I16.994178 J-23.903729
G03 X29.187542 Y84.203152 Z-1.000000 I19.553121 J-19.230983
G03 X27.677070 Y82.166405 Z-1.000000 I21.191657 J-17.294408
G03 X24.612758 Y75.123356 Z-1.000000 I17.671699 J-11.876799
G03 X24.310709 Y67.725255 Z-1.000000 I19.269793 J-4.491961
G03 X27.724678 Y58.947488 Z-1.000000 I21.014057 J3.120287
G03 X35.516281 Y51.149516 Z-1.000000 I24.110614 J16.299316
G03 X37.088600 Y50.168344 Z-1.000000 I13.907952 J20.536977
G03 X39.263177 Y49.001545 Z-1.000000 I21.871965 J38.153228
G03 X45.486727 Y46.568230 Z-1.000000 I16.342794 J32.623554
G03 X52.438408 Y45.198484 Z-1.000000 I11.376638 J39.412956
G03 X56.581019 Y44.954920 Z-1.000000 I4.537029 J41.815960
G03 X60.551229 Y45.122404 Z-1.000000 I0.361669 J38.567249
G01 X60.551229 Y45.122405 Z-1.000000
G00 Z5.000000

(End cutting path id: path3578)


(Footer)
M5
G00 X0.0000 Y0.0000
M2
(Using default footer. To add your own footer create file "footer" in the output dir.)
(end)
%