%
(Header)
(Generated by gcodetools from Inkscape.)
(Using default header. To add your own header create file "header" in the output dir.)
M3
(Header end.)
G21 (All units in mm)

(Start cutting path id: path3580)
(Change tool to Default tool)

G00 Z5.000000
G00 X52.438408 Y45.198484

G01 Z-1.000000 F100.0(Penetrate)
G02 X45.486727 Y46.568230 Z-1.000000 I4.424957 J40.782702 F400.000000
G02 X39.263177 Y49.001545 Z-1.000000 I10.119244 J35.056869
G02 X37.088600 Y50.168344 Z-1.000000 I19.697389 J39.320028
G02 X35.516281 Y51.149516 Z-1.000000 I12.335632 J21.518148
G02 X26.290536 Y61.598865 Z-1.000000 I15.659094 J23.122823
G02 X24.306432 Y73.160478 Z-1.000000 I17.623687 J8.975478
G02 X25.773637 Y78.502419 Z-1.000000 I20.120297 J-2.653733
G02 X28.946739 Y83.985839 Z-1.000000 I24.395322 J-10.457090
G02 X30.818934 Y86.117968 Z-1.000000 I14.870710 J-11.169738
G02 X33.790594 Y88.719227 Z-1.000000 I25.181760 J-25.769437
G02 X41.241873 Y93.085210 Z-1.000000 I19.896602 J-25.415454
G02 X50.330378 Y95.631014 Z-1.000000 I14.864637 J-35.570812
G02 X59.367425 Y96.057789 Z-1.000000 I6.578798 J-43.413326
G02 X67.919309 Y94.644749 Z-1.000000 I-2.256457 J-40.241362
G02 X76.236357 Y91.193548 Z-1.000000 I-9.933908 J-35.686950
G02 X82.646269 Y86.306765 Z-1.000000 I-14.623332 J-25.828460
G02 X86.739581 Y81.005240 Z-1.000000 I-18.926964 J-18.844512
G02 X88.995549 Y75.514291 Z-1.000000 I-18.082969 J-10.638336
G02 X87.307782 Y61.412113 Z-1.000000 I-19.186762 J-4.855790
G02 X75.165689 Y49.340970 Z-1.000000 I-25.429848 J13.437014
G02 X68.289215 Y46.589387 Z-1.000000 I-17.203926 J33.025999
G02 X60.551229 Y45.122405 Z-1.000000 I-11.677505 J40.454595
G02 X56.581019 Y44.954920 Z-1.000000 I-3.608543 J38.399573
G02 X52.438408 Y45.198485 Z-1.000000 I0.394417 J42.059317
G01 X52.438408 Y45.198484 Z-1.000000
G00 Z5.000000

(End cutting path id: path3580)


(Start cutting path id: path3580)
(Change tool to Default tool)

G00 Z5.000000
G00 X61.331689 Y54.528383

G01 Z-1.000000 F100.0(Penetrate)
G03 X68.869920 Y57.094402 Z-1.000000 I-4.923394 J26.819123 F400.000000
G03 X74.107639 Y61.092862 Z-1.000000 I-8.533481 J16.608060
G03 X77.734567 Y70.972539 Z-1.000000 I-10.219106 J9.357115
G03 X73.365109 Y80.767046 Z-1.000000 I-14.378768 J-0.542667
G03 X67.867961 Y84.521082 Z-1.000000 I-13.675091 J-14.123009
G03 X60.409429 Y86.693683 Z-1.000000 I-11.137915 J-24.347566
G03 X55.899594 Y86.936798 Z-1.000000 I-3.698562 J-26.658340
G03 X51.666558 Y86.430022 Z-1.000000 I0.722886 J-23.970567
G03 X45.326514 Y84.232290 Z-1.000000 I5.538115 J-26.220204
G03 X40.467476 Y80.892528 Z-1.000000 I9.171080 J-18.547658
G03 X39.113079 Y79.470749 Z-1.000000 I10.324449 J-11.191140
G03 X37.921318 Y77.848708 Z-1.000000 I12.270960 J-10.264664
G03 X36.253922 Y74.236891 Z-1.000000 I12.149627 J-7.799664
G03 X35.705865 Y70.539238 Z-1.000000 I12.199718 J-3.697653
G03 X35.921191 Y68.027005 Z-1.000000 I14.762913 J0.000000
G03 X36.451243 Y66.222976 Z-1.000000 I8.089857 J1.397043
G03 X37.758635 Y63.651409 Z-1.000000 I19.043799 J8.063795
G03 X39.277526 Y61.509636 Z-1.000000 I14.692927 J8.810387
G03 X45.281629 Y56.797820 Z-1.000000 I13.955852 J11.602139
G03 X54.085318 Y54.292027 Z-1.000000 I11.437273 J23.464919
G03 X57.913444 Y54.160950 Z-1.000000 I2.893216 J28.530856
G03 X61.331689 Y54.528383 Z-1.000000 I-0.753184 J23.090680
G01 X61.331689 Y54.528383 Z-1.000000
G00 Z5.000000

(End cutting path id: path3580)


(Footer)
M5
G00 X0.0000 Y0.0000
M2
(Using default footer. To add your own footer create file "footer" in the output dir.)
(end)
%