%
(Header)
(Generated by gcodetools from Inkscape.)
(Using default header. To add your own header create file "header" in the output dir.)
M3
(Header end.)
G21 (All units in mm)

(Start cutting path id: path3576)
(Change tool to Default tool)

G00 Z5.000000
G00 X56.127479 Y6.333270

G01 Z-1.000000 F100.0(Penetrate)
G02 X53.455984 Y7.296607 Z-1.000000 I1.395369 J8.055509 F400.000000
G02 X51.568918 Y8.947280 Z-1.000000 I3.169722 J5.527653
G02 X50.686162 Y10.629716 Z-1.000000 I4.433202 J3.398857
G02 X50.237728 Y13.070161 Z-1.000000 I9.066514 J2.927403
G03 X50.122573 Y14.511020 Z-1.000000 I-25.202220 J-1.289156
G01 X50.076478 Y14.552371 Z-1.000000
G03 X50.002829 Y14.524185 Z-1.000000 I0.000000 J-0.110313
G03 X49.345208 Y13.896631 Z-1.000000 I9.797563 J-10.925327
G02 X46.067993 Y11.491881 Z-1.000000 I-9.092346 J8.955650
G02 X40.736568 Y9.490080 Z-1.000000 I-11.413694 J22.297716
G02 X38.158652 Y9.007148 Z-1.000000 I-5.303284 J21.187193
G02 X35.574112 Y8.840820 Z-1.000000 I-2.657438 J21.129994
G02 X30.633307 Y9.699187 Z-1.000000 I-0.049051 J14.366615
G02 X25.718974 Y12.409691 Z-1.000000 I6.126629 J16.918270
G02 X19.788801 Y18.875872 Z-1.000000 I16.099873 J20.717679
G02 X17.536307 Y25.058505 Z-1.000000 I12.391407 J8.016148
G02 X17.903091 Y28.234994 Z-1.000000 I6.687104 J0.837272
G02 X19.819198 Y31.226637 Z-1.000000 I7.801879 J-2.887557
G02 X22.936032 Y33.621511 Z-1.000000 I10.660590 J-10.648681
G02 X27.524424 Y35.682965 Z-1.000000 I12.354605 J-21.361767
G02 X31.186818 Y36.578664 Z-1.000000 I7.396713 J-22.308802
G02 X34.981227 Y36.882994 Z-1.000000 I3.806492 J-23.652972
G02 X37.732527 Y36.772357 Z-1.000000 I0.017418 J-33.831553
G02 X38.867920 Y36.567910 Z-1.000000 I-0.480008 J-5.920635
G02 X44.195192 Y33.798146 Z-1.000000 I-4.029152 J-14.257568
G02 X49.391048 Y27.997183 Z-1.000000 I-15.740009 J-19.325561
G01 X50.195688 Y26.751609 Z-1.000000
G01 X50.230088 Y32.279133 Z-1.000000
G01 X50.264488 Y37.806656 Z-1.000000
G01 X50.923248 Y37.779386 Z-1.000000
G02 X51.581976 Y37.751250 Z-1.000000 I-10.402944 J-251.280235
G02 X54.282928 Y37.631456 Z-1.000000 I-182.667526 J-4149.019891
G03 X59.248172 Y37.573464 Z-1.000000 I3.361888 J75.252651
G03 X62.682139 Y37.810268 Z-1.000000 I-0.770476 J36.189737
G01 X63.505599 Y37.906568 Z-1.000000
G01 X63.513599 Y32.323016 Z-1.000000
G03 X63.599287 Y27.008266 Z-1.000000 I180.201728 J0.247264
G01 X63.678289 Y26.986622 Z-1.000000
G02 X67.402608 Y31.843629 Z-1.000000 I29.258076 J-18.578498
G02 X70.749109 Y34.690504 Z-1.000000 I13.157432 J-12.076212
G02 X73.107131 Y35.947153 Z-1.000000 I7.993383 J-12.158405
G02 X75.521299 Y36.695193 Z-1.000000 I5.042050 J-12.002669
G02 X78.981434 Y37.007138 Z-1.000000 I3.100311 J-15.042960
G02 X83.202819 Y36.515185 Z-1.000000 I-0.538463 J-22.978046
G02 X87.955053 Y35.056343 Z-1.000000 I-5.775068 J-27.282220
G02 X91.758799 Y33.027213 Z-1.000000 I-7.917690 J-19.422021
G02 X94.548994 Y30.581286 Z-1.000000 I-8.203084 J-12.172102
G02 X95.923009 Y28.320491 Z-1.000000 I-5.588591 J-4.944440
G02 X96.285172 Y26.368357 Z-1.000000 I-5.050521 J-1.946642
G02 X95.918009 Y23.643286 Z-1.000000 I-10.374410 J0.010527
G02 X92.091202 Y16.246327 Z-1.000000 I-19.197735 J5.243548
G02 X85.112869 Y10.504161 Z-1.000000 I-18.099099 J14.884058
G02 X80.078071 Y8.968066 Z-1.000000 I-6.338515 J11.756279
G02 X73.518669 Y9.366990 Z-1.000000 I-2.031900 J20.716744
G02 X67.817272 Y11.385731 Z-1.000000 I5.446781 J24.443403
G02 X64.301519 Y13.949191 Z-1.000000 I5.769543 J11.605487
G03 X63.699885 Y14.518617 Z-1.000000 I-7.280914 J-7.090195
G03 X63.609819 Y14.552371 Z-1.000000 I-0.090066 J-0.103285
G03 X63.555195 Y14.502549 Z-1.000000 I0.000000 J-0.054855
G03 X63.503549 Y13.399541 Z-1.000000 I12.193996 J-1.123674
G02 X63.298267 Y11.406876 Z-1.000000 I-9.919697 J0.015009
G02 X62.795419 Y9.971450 Z-1.000000 I-5.609668 J1.159347
G02 X61.153331 Y7.870310 Z-1.000000 I-6.189003 J3.144610
G02 X58.977589 Y6.662230 Z-1.000000 I-3.959983 J4.568609
G02 X57.260445 Y6.301184 Z-1.000000 I-2.808195 J9.091945
G02 X56.127369 Y6.333270 Z-1.000000 I-0.455290 J3.944682
G01 X56.127479 Y6.333270 Z-1.000000
G00 Z5.000000

(End cutting path id: path3576)


(Start cutting path id: path3576)
(Change tool to Default tool)

G00 Z5.000000
G00 X48.959188 Y63.762078

G01 Z-1.000000 F100.0(Penetrate)
G02 X46.926698 Y67.944853 Z-1.000000 I4.358774 J4.703211 F400.000000
G02 X47.988868 Y75.678013 Z-1.000000 I18.006640 J1.466267
G02 X48.968130 Y77.296203 Z-1.000000 I4.697656 J-1.737431
G02 X49.776408 Y77.658798 Z-1.000000 I0.815690 J-0.736110
G02 X52.126161 Y75.704141 Z-1.000000 I0.015994 J-2.370457
G02 X51.781578 Y66.404463 Z-1.000000 I-21.634632 J-3.854590
G02 X50.219743 Y63.765269 Z-1.000000 I-5.302318 J1.356099
G02 X48.959188 Y63.762078 Z-1.000000 I-0.631991 J0.675043
G01 X48.959188 Y63.762078 Z-1.000000
G00 Z5.000000

(End cutting path id: path3576)


(Start cutting path id: path3576)
(Change tool to Default tool)

G00 Z5.000000
G00 X63.174609 Y63.794798

G01 Z-1.000000 F100.0(Penetrate)
G02 X62.613845 Y64.593148 Z-1.000000 I1.920917 J1.945374 F400.000000
G02 X61.905559 Y66.540472 Z-1.000000 I11.195618 J5.174575
G02 X61.418775 Y69.987441 Z-1.000000 I13.533122 J3.669017
G02 X61.787839 Y73.972663 Z-1.000000 I18.531757 J0.293507
G02 X63.401718 Y77.262463 Z-1.000000 I7.102846 J-1.443687
G02 X64.736019 Y77.391389 Z-1.000000 I0.734589 J-0.633483
G02 X65.369064 Y76.568020 Z-1.000000 I-1.303696 J-1.657386
G02 X66.151499 Y74.104416 Z-1.000000 I-11.997109 J-5.166304
G02 X66.531597 Y70.527518 Z-1.000000 I-17.190325 J-3.635367
G02 X66.174699 Y67.121544 Z-1.000000 I-15.924808 J-0.052993
G02 X65.465569 Y64.810806 Z-1.000000 I-13.812464 J2.974652
G02 X64.879539 Y63.910633 Z-1.000000 I-2.587627 J1.043751
G02 X63.982213 Y63.494831 Z-1.000000 I-0.990960 J0.962409
G02 X63.174579 Y63.794798 Z-1.000000 I-0.071058 J1.045909
G01 X63.174609 Y63.794798 Z-1.000000
G00 Z5.000000

(End cutting path id: path3576)


(Footer)
M5
G00 X0.0000 Y0.0000
M2
(Using default footer. To add your own footer create file "footer" in the output dir.)
(end)
%